; generated by SuperSlicer 2.3.57 on 2022-07-06 at 03:55:02 UTC


;
;

;
;
; TODO: check the size of the extruder and the y-bar clearance. Optimize & test supports.

; external perimeters extrusion width = 0.42mm
; perimeters extrusion width = 0.44mm
; infill extrusion width = 0.44mm
; solid infill extrusion width = 0.44mm
; top infill extrusion width = 0.44mm
; first layer extrusion width = 0.56mm

; object:{"name":"3DBenchy","id":"3DBenchy.stl id:0 copy 0","object_center":[90.000000,90.000000,0.000000],"boundingbox_center":[90.000000,90.000000,24.000000],"boundingbox_size":[60.000999,31.004000,48.000000]}
; plater:{"center":[90.000000,90.000000,0.000000],"boundingbox_center":[90.000000,90.000000,24.000000],"boundingbox_size":[60.000999,31.004000,48.000000]}

;TYPE:Custom
; M190 S0
; M109 S0 ; uncomment to remove set&wait temp gcode added automatically after this start gcode
print_start EXTRUDER=215 BED=60
M107
G21 ; set units to millimeters
G90 ; use absolute coordinates
M83 ; use relative distances for extrusion
; M190 S0
; M109 S0 ; uncomment to remove set&wait temp gcode added automatically after this start gcode
print_start_pla EXTRUDER=215 BED=60 CHAMBER=15
M104 S215 ; set temperature
M109 S215 ; set temperature and wait for it to be reached
M190 S60 ; set bed temperature and wait for it to be reached
;LAYER_CHANGE
;Z:0.2
;HEIGHT:0.2
TIMELAPSE_TAKE_FRAME
G1 Z0.2 F24000
;0.2
; INIT printing object 3DBenchy.stl id:0 copy 0
G1 E-0.75 F3000
G1 Z0.6 F24000
; printing object 3DBenchy.stl id:0 copy 0
G1 X64.996 Y84.031
G1 Z0.2
G1 E0.75 F1800
;TYPE:External perimeter
;WIDTH:0.56
G1 F2780
G1 X65.155 Y83.92 E0.00832
G1 X65.367 Y83.818 E0.01012
G1 X65.597 Y83.753 E0.01025
G1 X65.8 Y83.728 E0.00882
G1 X89.183 Y82.307 E1.00723
G1 X89.471 Y82.293 E0.01238
G1 X89.729 Y82.285 E0.0111
G1 X90.288 Y82.283 E0.02403
G1 X90.562 Y82.29 E0.01178
G1 X90.823 Y82.301 E0.01124
G1 X91.112 Y82.319 E0.01244
G1 X91.538 Y82.357 E0.01841
G1 X91.919 Y82.401 E0.01645
G1 X92.373 Y82.468 E0.01974
G1 X92.724 Y82.529 E0.01532
G1 X92.993 Y82.582 E0.01178
G1 X93.31 Y82.652 E0.01398
G1 X93.571 Y82.714 E0.01153
G1 X93.792 Y82.772 E0.00981
G1 X94.21 Y82.89 E0.01866
G1 X94.584 Y83.007 E0.01685
G1 X94.862 Y83.101 E0.01262
G1 X95.119 Y83.194 E0.01178
G1 X95.431 Y83.314 E0.01436
G1 X95.625 Y83.393 E0.00901
G1 X95.871 Y83.498 E0.01148
G1 X96.139 Y83.619 E0.01263
G1 X96.464 Y83.775 E0.01551
G1 X96.869 Y83.982 E0.01957
G1 X97.137 Y84.129 E0.01314
G1 X97.36 Y84.256 E0.01106
G1 X97.739 Y84.486 E0.01906
G1 X98.074 Y84.7 E0.0171
G1 X98.3 Y84.854 E0.01174
G1 X98.558 Y85.036 E0.01359
G1 X98.737 Y85.167 E0.00951
G1 X98.973 Y85.348 E0.0128
G1 X99.185 Y85.516 E0.01164
G1 X99.41 Y85.702 E0.01252
G1 X99.76 Y86.007 E0.01998
G1 X100.036 Y86.263 E0.01618
G1 X100.226 Y86.447 E0.01137
G1 X100.419 Y86.641 E0.01178
G1 X100.609 Y86.839 E0.01181
G1 X100.796 Y87.041 E0.01183
G1 X101.022 Y87.297 E0.01468
G1 X101.179 Y87.481 E0.0104
G1 X101.354 Y87.694 E0.01186
G1 X101.635 Y88.054 E0.01962
G1 X101.852 Y88.35 E0.01578
G1 X102.009 Y88.573 E0.01173
G1 X102.161 Y88.8 E0.01177
G1 X102.335 Y89.071 E0.01384
G1 X102.461 Y89.275 E0.01033
G1 X102.608 Y89.525 E0.01242
G1 X102.729 Y89.871 E0.01579
G1 X102.718 Y90.188 E0.01361
G1 X102.608 Y90.475 E0.01324
G1 X102.476 Y90.699 E0.01114
G1 X102.262 Y91.045 E0.01751
G1 X102.092 Y91.304 E0.01333
G1 X101.933 Y91.538 E0.01215
G1 X101.722 Y91.841 E0.01587
G1 X101.62 Y92.007 E0.00839
G1 X101.51 Y92.166 E0.0083
G1 X101.37 Y92.444 E0.0134
G1 X101.109 Y92.756 E0.01748
G1 X100.802 Y93.102 E0.01989
G1 X100.449 Y93.472 E0.02196
G1 X100.204 Y93.715 E0.01486
G1 X99.992 Y93.913 E0.01249
G1 X99.707 Y94.085 E0.0143
G1 X99.414 Y94.305 E0.01574
G1 X99.038 Y94.603 E0.02063
G1 X98.791 Y94.793 E0.0134
G1 X98.458 Y95.036 E0.01771
G1 X98.16 Y95.242 E0.01559
G1 X97.856 Y95.442 E0.01566
G1 X97.459 Y95.686 E0.02004
G1 X97.119 Y95.881 E0.01685
G1 X96.903 Y96 E0.01058
G1 X96.684 Y96.115 E0.01064
G1 X96.462 Y96.226 E0.01068
G1 X96.185 Y96.36 E0.01323
G1 X96.032 Y96.43 E0.00725
G1 X95.601 Y96.616 E0.02016
G1 X95.31 Y96.734 E0.0135
G1 X95.152 Y96.794 E0.00726
G1 X94.86 Y96.9 E0.01338
G1 X94.697 Y96.956 E0.00739
G1 X94.33 Y97.074 E0.01659
G1 X94.1 Y97.143 E0.01031
G1 X93.934 Y97.19 E0.00745
G1 X93.474 Y97.31 E0.02044
G1 X93.039 Y97.408 E0.01915
G1 X92.84 Y97.448 E0.00875
G1 X92.531 Y97.506 E0.01352
G1 X92.046 Y97.582 E0.0211
G1 X91.672 Y97.628 E0.01621
G1 X91.423 Y97.655 E0.01075
G1 X91.251 Y97.67 E0.00743
G1 X90.777 Y97.701 E0.02044
G1 X90.305 Y97.717 E0.02028
G1 X89.828 Y97.717 E0.0205
G1 X89.481 Y97.708 E0.01494
G1 X89.167 Y97.692 E0.0135
G1 X65.8 Y96.272 E1.00652
G1 X65.596 Y96.247 E0.00885
G1 X65.297 Y96.154 E0.01347
G1 X65.139 Y96.071 E0.00768
G1 X64.931 Y95.911 E0.01127
G1 X64.807 Y95.775 E0.00791
G1 X64.676 Y95.571 E0.01042
G1 X64.587 Y95.359 E0.00988
G1 X64.537 Y95.163 E0.00872
G1 X64.511 Y94.956 E0.00897
G1 X64.508 Y94.842 E0.00487
G1 X64.506 Y92.702 E0.09204
G1 X64.493 Y92.227 E0.02041
G1 X64.459 Y91.758 E0.02025
G1 X64.408 Y91.31 E0.01936
G1 X64.408 Y88.988 E0.09983
G1 X64.42 Y88.519 E0.02017
G1 X64.481 Y87.993 E0.0228
G1 X64.503 Y87.552 E0.01898
G1 X64.507 Y87.127 E0.01825
G1 X64.51 Y85.059 E0.08895
G1 X64.537 Y84.836 E0.00965
G1 X64.62 Y84.549 E0.01285
G1 X64.752 Y84.299 E0.01212
G1 X64.951 Y84.071 E0.01304
;WIPE_START
G1 X65.087 Y84.067 F24000
;WIPE_END
G1 E-0.75 F3000
G1 Z0.6 F24000
G1 X98.467 Y89.747
G1 Z0.2
G1 E0.75 F1800
G1 F2780
G1 X98.573 Y89.776 E0.00469
G1 X98.548 Y89.862 E0.00385
G1 X98.448 Y89.998 E0.00722
G1 X98.313 Y90.19 E0.01011
G1 X98.064 Y90.456 E0.01567
G1 X97.78 Y90.789 E0.01878
G1 X97.563 Y91.074 E0.01543
G1 X97.257 Y91.479 E0.02181
G1 X97.159 Y91.617 E0.00727
G1 X97.027 Y91.823 E0.01052
G1 X96.934 Y92.007 E0.00887
G1 X96.843 Y92.28 E0.0124
G1 X96.816 Y92.563 E0.0122
G1 X96.859 Y92.844 E0.01223
G1 X96.967 Y93.096 E0.0118
G1 X97.093 Y93.257 E0.0088
G1 X97.23 Y93.366 E0.0075
G1 X97.384 Y93.437 E0.00729
G1 X97.642 Y93.482 E0.01128
G1 X97.832 Y93.479 E0.00817
G1 X98.124 Y93.457 E0.01257
G1 X98.23 Y93.454 E0.00458
G1 X98.679 Y93.46 E0.01929
G1 X98.915 Y93.456 E0.01016
G1 X99.243 Y93.439 E0.0141
G1 X99.614 Y93.406 E0.01602
G1 X99.83 Y93.362 E0.0095
G1 X100.073 Y93.352 E0.01043
G1 X100.245 Y93.327 E0.0075
G1 X100.516 Y93.219 E0.01252
G1 X100.635 Y93.118 E0.0067
G1 X100.722 Y92.994 E0.00654
G1 X100.817 Y92.672 E0.01445
G1 X100.796 Y92.386 E0.01232
G1 X100.695 Y92.132 E0.01175
G1 X100.632 Y92.029 E0.00519
G1 X100.459 Y91.885 E0.00966
G1 X100.358 Y91.848 E0.00465
G1 X100.022 Y91.774 E0.0148
G1 X99.837 Y91.764 E0.00796
G1 X99.539 Y91.806 E0.01293
G1 X99.384 Y91.739 E0.00726
G1 X99.152 Y91.768 E0.01004
G1 X99.262 Y91.612 E0.00821
G1 X99.302 Y91.448 E0.00728
G1 X99.407 Y91.305 E0.0076
G1 X99.615 Y91.105 E0.01244
G1 X99.898 Y90.759 E0.0192
G1 X100.218 Y90.326 E0.02314
G1 X100.41 Y90.058 E0.01419
G1 X100.534 Y89.877 E0.00944
G1 X100.662 Y89.671 E0.01042
G1 X100.741 Y89.505 E0.00791
G1 X100.803 Y89.318 E0.00848
G1 X100.839 Y88.995 E0.01394
G1 X100.8 Y88.716 E0.0121
G1 X100.712 Y88.494 E0.01028
G1 X100.611 Y88.352 E0.0075
G1 X100.398 Y88.194 E0.01142
G1 X100.237 Y88.136 E0.00733
G1 X99.959 Y88.101 E0.01204
G1 X99.698 Y88.103 E0.01123
G1 X99.475 Y88.106 E0.00959
G1 X98.27 Y88.102 E0.0518
G1 X98.063 Y88.103 E0.00889
G1 X97.88 Y88.11 E0.00791
G1 X97.493 Y88.184 E0.01693
G1 X97.392 Y88.217 E0.00455
G1 X97.213 Y88.337 E0.00928
G1 X97.037 Y88.608 E0.0139
G1 X96.965 Y88.847 E0.0107
G1 X96.979 Y89.178 E0.01428
G1 X97.098 Y89.441 E0.0124
G1 X97.302 Y89.634 E0.0121
G1 X97.561 Y89.744 E0.01206
G1 X97.679 Y89.756 E0.0051
G1 X97.886 Y89.748 E0.0089
G1 X98.125 Y89.761 E0.01029
G1 X98.408 Y89.753 E0.01218
;WIPE_START
G1 X98.507 Y89.848 F24000
;WIPE_END
G1 E-0.75 F3000
G1 Z0.6 F24000
G1 X94.56 Y90.517
G1 Z0.2
G1 E0.75 F1800
G1 F2780
G1 X94.234 Y89.645 E0.04004
G1 X94.217 Y89.509 E0.0059
G1 X94.161 Y89.277 E0.01025
G1 X94.123 Y89.038 E0.01039
G1 X94.063 Y88.811 E0.01011
G1 X93.957 Y88.568 E0.0114
G1 X93.848 Y88.421 E0.00787
G1 X93.632 Y88.249 E0.01185
G1 X93.306 Y88.13 E0.01494
G1 X92.944 Y88.144 E0.0156
G1 X92.795 Y88.189 E0.00668
G1 X92.632 Y88.287 E0.0082
G1 X92.472 Y88.525 E0.01233
G1 X92.444 Y88.686 E0.007
G1 X92.436 Y88.812 E0.00542
G1 X92.438 Y89.202 E0.01679
G1 X92.444 Y89.331 E0.00556
G1 X92.489 Y89.573 E0.01057
G1 X92.579 Y89.842 E0.0122
G1 X92.768 Y90.333 E0.02263
G1 X92.972 Y90.885 E0.02531
G1 X93.195 Y91.473 E0.02703
G1 X93.361 Y91.937 E0.02119
G1 X93.417 Y92.077 E0.0065
G1 X93.568 Y92.404 E0.01549
G1 X93.635 Y92.562 E0.00735
G1 X93.67 Y92.723 E0.00709
G1 X93.622 Y92.89 E0.00749
G1 X93.489 Y93.163 E0.01304
G1 X93.437 Y93.275 E0.00534
G1 X93.39 Y93.389 E0.00527
G1 X93.287 Y93.673 E0.013
G1 X93.216 Y93.853 E0.00833
G1 X93.104 Y94.04 E0.00936
G1 X92.976 Y94.157 E0.00747
G1 X92.859 Y94.219 E0.0057
G1 X92.529 Y94.308 E0.01469
G1 X92.397 Y94.349 E0.00594
G1 X92.245 Y94.419 E0.00719
G1 X92.051 Y94.583 E0.01091
G1 X91.96 Y94.739 E0.00775
G1 X91.914 Y94.906 E0.00746
G1 X91.907 Y95.09 E0.00793
G1 X91.993 Y95.441 E0.01552
G1 X92.19 Y95.743 E0.01554
G1 X92.332 Y95.863 E0.00796
G1 X92.496 Y95.945 E0.00788
G1 X92.76 Y95.999 E0.01161
G1 X93.038 Y95.988 E0.01195
G1 X93.248 Y95.947 E0.0092
G1 X93.479 Y95.877 E0.01038
G1 X93.791 Y95.743 E0.0146
G1 X93.972 Y95.633 E0.00912
G1 X94.205 Y95.431 E0.01324
G1 X94.398 Y95.184 E0.01347
G1 X94.58 Y94.861 E0.01596
G1 X94.646 Y94.723 E0.00658
G1 X94.799 Y94.363 E0.0168
G1 X95.179 Y93.385 E0.04515
G1 X95.317 Y93.009 E0.01719
G1 X95.866 Y91.462 E0.07059
G1 X96.134 Y90.716 E0.03407
G1 X96.208 Y90.493 E0.01009
G1 X96.297 Y90.201 E0.01315
G1 X96.369 Y89.931 E0.01198
G1 X96.449 Y89.706 E0.0103
G1 X96.509 Y89.456 E0.01102
G1 X96.586 Y89.23 E0.01028
G1 X96.612 Y88.992 E0.01031
G1 X96.571 Y88.778 E0.00938
G1 X96.5 Y88.621 E0.00739
G1 X96.379 Y88.397 E0.01095
G1 X96.228 Y88.244 E0.00922
G1 X95.967 Y88.142 E0.01207
G1 X95.748 Y88.145 E0.00942
G1 X95.506 Y88.233 E0.01105
G1 X95.288 Y88.424 E0.01249
G1 X95.121 Y88.665 E0.0126
G1 X94.975 Y88.995 E0.0155
G1 X94.895 Y89.291 E0.01317
G1 X94.854 Y89.483 E0.00845
G1 X94.817 Y89.741 E0.01123
G1 X94.69 Y90.083 E0.01566
G1 X94.639 Y90.24 E0.00713
G1 X94.577 Y90.459 E0.00978
;WIPE_START
G1 X94.547 Y90.437 F24000
;WIPE_END
G1 E-0.75 F3000
G1 Z0.6 F24000
G1 X69.749 Y91.962
G1 Z0.2
G1 E0.75 F1800
G1 F2780
G1 X69.685 Y91.693 E0.0119
G1 X69.532 Y91.468 E0.01171
G1 X69.311 Y91.295 E0.01204
G1 X68.953 Y91.171 E0.01631
G1 X68.68 Y91.165 E0.01176
G1 X68.424 Y91.235 E0.0114
G1 X68.207 Y91.381 E0.01124
G1 X68.062 Y91.559 E0.00985
G1 X67.848 Y91.652 E0.01004
G1 X67.505 Y91.682 E0.0148
G1 X67.306 Y91.653 E0.00866
G1 X67.12 Y91.591 E0.00844
G1 X66.864 Y91.429 E0.01302
G1 X66.683 Y91.202 E0.01249
G1 X66.555 Y90.902 E0.01403
G1 X66.506 Y90.708 E0.00859
G1 X66.46 Y90.383 E0.0141
G1 X66.449 Y90.233 E0.00648
G1 X66.442 Y89.923 E0.01333
G1 X66.454 Y89.625 E0.01284
G1 X66.464 Y89.504 E0.0052
G1 X66.515 Y89.185 E0.0139
G1 X66.616 Y88.864 E0.01445
G1 X66.823 Y88.54 E0.01654
G1 X67.12 Y88.337 E0.01548
G1 X67.303 Y88.275 E0.00831
G1 X67.536 Y88.248 E0.01008
G1 X67.802 Y88.312 E0.01179
G1 X67.924 Y88.38 E0.00598
G1 X68.17 Y88.536 E0.01252
G1 X68.36 Y88.641 E0.00935
G1 X68.627 Y88.74 E0.01224
G1 X68.983 Y88.766 E0.01533
G1 X69.248 Y88.666 E0.0122
G1 X69.509 Y88.419 E0.01546
G1 X69.63 Y88.129 E0.0135
G1 X69.632 Y87.901 E0.0098
G1 X69.599 Y87.677 E0.00975
G1 X69.498 Y87.371 E0.01386
G1 X69.377 Y87.199 E0.00904
G1 X69.222 Y87.043 E0.00944
G1 X69.025 Y86.877 E0.0111
G1 X68.814 Y86.752 E0.01054
G1 X68.61 Y86.658 E0.00965
G1 X68.373 Y86.583 E0.01067
G1 X68.112 Y86.528 E0.01147
G1 X67.838 Y86.5 E0.01185
G1 X67.684 Y86.493 E0.00664
G1 X67.461 Y86.495 E0.00958
G1 X67.183 Y86.517 E0.01197
G1 X66.994 Y86.547 E0.00822
G1 X66.674 Y86.627 E0.01418
G1 X66.431 Y86.716 E0.01115
G1 X66.199 Y86.828 E0.01108
G1 X65.979 Y86.962 E0.01106
G1 X65.772 Y87.118 E0.01116
G1 X65.673 Y87.204 E0.00564
G1 X65.49 Y87.391 E0.01123
G1 X65.325 Y87.599 E0.01141
G1 X65.183 Y87.834 E0.01183
G1 X65.064 Y88.092 E0.01221
G1 X64.98 Y88.369 E0.01245
G1 X64.934 Y88.651 E0.01227
G1 X64.871 Y88.938 E0.01264
G1 X64.82 Y89.276 E0.01468
G1 X64.791 Y89.629 E0.01523
G1 X64.784 Y89.804 E0.00752
G1 X64.785 Y90.179 E0.01613
G1 X64.807 Y90.53 E0.01512
G1 X64.847 Y90.852 E0.01396
G1 X64.874 Y91.006 E0.00672
G1 X64.932 Y91.268 E0.01154
G1 X64.972 Y91.524 E0.01117
G1 X65.047 Y91.789 E0.01182
G1 X65.156 Y92.046 E0.01203
G1 X65.289 Y92.278 E0.01148
G1 X65.449 Y92.491 E0.01148
G1 X65.627 Y92.683 E0.01123
G1 X65.822 Y92.853 E0.01113
G1 X65.927 Y92.932 E0.00565
G1 X66.257 Y93.133 E0.01659
G1 X66.495 Y93.239 E0.01122
G1 X66.619 Y93.285 E0.0057
G1 X66.912 Y93.366 E0.01307
G1 X67.186 Y93.412 E0.01193
G1 X67.331 Y93.426 E0.00625
G1 X67.632 Y93.436 E0.01295
G1 X67.777 Y93.432 E0.00625
G1 X68.043 Y93.409 E0.01148
G1 X68.405 Y93.339 E0.01586
G1 X68.743 Y93.219 E0.01543
G1 X69.037 Y93.055 E0.01449
G1 X69.213 Y92.921 E0.00949
G1 X69.441 Y92.684 E0.01414
G1 X69.564 Y92.509 E0.00919
G1 X69.701 Y92.225 E0.01354
G1 X69.748 Y92.022 E0.00896
;WIPE_START
G1 X69.83 Y91.908 F24000
;WIPE_END
G1 E-0.75 F3000
G1 Z0.6 F24000
G1 X73.61 Y88.366
G1 Z0.2
G1 E0.75 F1800
G1 F2780
G1 X74.019 Y88.383 E0.0176
G1 X74.188 Y88.389 E0.00724
G1 X74.502 Y88.379 E0.01353
G1 X74.664 Y88.361 E0.00703
G1 X75.001 Y88.269 E0.015
G1 X75.172 Y88.178 E0.00833
G1 X75.299 Y88.048 E0.00782
G1 X75.35 Y87.95 E0.00474
G1 X75.433 Y87.59 E0.01587
G1 X75.415 Y87.155 E0.01871
G1 X75.282 Y86.904 E0.01223
G1 X75.125 Y86.785 E0.00846
G1 X74.995 Y86.73 E0.0061
G1 X74.635 Y86.667 E0.01568
G1 X74.348 Y86.673 E0.01237
G1 X73.795 Y86.667 E0.02377
G1 X72.231 Y86.665 E0.06723
G1 X71.988 Y86.666 E0.01046
G1 X71.592 Y86.676 E0.01704
G1 X71.485 Y86.676 E0.00457
G1 X71.385 Y86.672 E0.00433
G1 X71 Y86.639 E0.0166
G1 X70.822 Y86.639 E0.00767
G1 X70.639 Y86.674 E0.008
G1 X70.443 Y86.765 E0.00928
G1 X70.248 Y86.944 E0.0114
G1 X70.148 Y87.118 E0.00864
G1 X70.097 Y87.313 E0.00865
G1 X70.101 Y87.482 E0.00727
G1 X70.139 Y87.755 E0.01184
G1 X70.215 Y88.028 E0.01218
G1 X70.396 Y88.256 E0.01253
G1 X70.557 Y88.344 E0.00786
G1 X70.711 Y88.387 E0.0069
G1 X70.975 Y88.41 E0.01138
G1 X71.088 Y88.404 E0.00488
G1 X71.375 Y88.365 E0.01244
G1 X71.56 Y88.348 E0.00801
G1 X71.678 Y88.347 E0.00506
G1 X71.813 Y88.371 E0.00589
G1 X71.924 Y88.461 E0.00613
G1 X71.937 Y88.635 E0.00752
G1 X71.908 Y89.007 E0.01603
G1 X71.903 Y89.143 E0.00587
G1 X71.903 Y89.289 E0.00627
G1 X71.911 Y89.706 E0.01792
G1 X71.909 Y91.441 E0.07462
G1 X71.919 Y91.823 E0.0164
G1 X71.919 Y91.929 E0.00456
G1 X71.881 Y92.406 E0.02057
G1 X71.883 Y92.595 E0.00815
G1 X71.94 Y92.835 E0.01061
G1 X72.034 Y92.995 E0.00796
G1 X72.239 Y93.166 E0.01149
G1 X72.497 Y93.265 E0.01187
G1 X72.872 Y93.282 E0.01615
G1 X73.201 Y93.167 E0.01498
G1 X73.347 Y93.051 E0.00803
G1 X73.464 Y92.903 E0.00807
G1 X73.594 Y92.569 E0.01544
G1 X73.622 Y92.373 E0.00851
G1 X73.628 Y92.163 E0.00903
G1 X73.612 Y91.835 E0.01412
G1 X73.607 Y91.525 E0.01333
G1 X73.612 Y90.985 E0.02323
G1 X73.61 Y89.398 E0.06822
G1 X73.614 Y88.772 E0.02692
G1 X73.607 Y88.426 E0.01488
;WIPE_START
G1 X73.653 Y88.389 F24000
;WIPE_END
G1 E-0.75 F3000
G1 Z0.6 F24000
G1 X79.166 Y89.5
G1 Z0.2
G1 E0.75 F1800
G1 F2780
G1 X79.423 Y89.313 E0.01364
G1 X79.534 Y89.179 E0.0075
G1 X79.638 Y88.977 E0.00974
G1 X79.734 Y88.91 E0.00506
G1 X79.777 Y88.695 E0.00943
G1 X79.802 Y88.464 E0.01002
G1 X79.841 Y88.334 E0.0058
G1 X79.842 Y88.079 E0.011
G1 X79.828 Y87.876 E0.00871
G1 X79.785 Y87.672 E0.009
G1 X79.715 Y87.483 E0.00867
G1 X79.612 Y87.297 E0.00912
G1 X79.484 Y87.128 E0.0091
G1 X79.246 Y86.905 E0.01405
G1 X78.97 Y86.732 E0.01403
G1 X78.646 Y86.604 E0.01496
G1 X78.427 Y86.552 E0.00966
G1 X78.147 Y86.509 E0.01218
G1 X77.853 Y86.491 E0.01267
G1 X77.559 Y86.496 E0.01266
G1 X77.365 Y86.513 E0.00837
G1 X77.126 Y86.55 E0.01041
G1 X76.77 Y86.653 E0.01591
G1 X76.439 Y86.823 E0.01601
G1 X76.212 Y86.997 E0.01229
G1 X76.133 Y87.078 E0.00488
G1 X75.988 Y87.344 E0.01302
G1 X75.927 Y87.574 E0.01021
G1 X75.924 Y87.722 E0.00638
G1 X75.989 Y88.049 E0.01431
G1 X76.086 Y88.214 E0.00825
G1 X76.269 Y88.4 E0.0112
G1 X76.459 Y88.498 E0.0092
G1 X76.669 Y88.523 E0.0091
G1 X76.851 Y88.477 E0.00805
