; generated by SuperSlicer 2.3.57 on 2022-07-06 at 03:59:42 UTC


;
;

;
;
; TODO: check the size of the extruder and the y-bar clearance. Optimize & test supports.

; external perimeters extrusion width = 0.42mm
; perimeters extrusion width = 0.44mm
; infill extrusion width = 0.44mm
; solid infill extrusion width = 0.44mm
; top infill extrusion width = 0.44mm
; first layer extrusion width = 0.56mm

; object:{"name":"Bridge Test","id":"Bridge Test.stl id:0 copy 0","object_center":[90.000000,90.000000,0.000000],"boundingbox_center":[90.000000,90.000000,6.200000],"boundingbox_size":[101.385643,87.802544,12.400000]}
; plater:{"center":[90.000000,90.000000,0.000000],"boundingbox_center":[90.000000,90.000000,6.200000],"boundingbox_size":[101.385643,87.802544,12.400000]}

;TYPE:Custom
; M190 S0
; M109 S0 ; uncomment to remove set&wait temp gcode added automatically after this start gcode
print_start EXTRUDER=215 BED=60
M107
G21 ; set units to millimeters
G90 ; use absolute coordinates
M83 ; use relative distances for extrusion
; M190 S0
; M109 S0 ; uncomment to remove set&wait temp gcode added automatically after this start gcode
print_start_pla EXTRUDER=215 BED=60 CHAMBER=15
M104 S215 ; set temperature
M109 S215 ; set temperature and wait for it to be reached
M190 S60 ; set bed temperature and wait for it to be reached
M107
;LAYER_CHANGE
;Z:0.2
;HEIGHT:0.2
TIMELAPSE_TAKE_FRAME
G1 Z0.2 F24000
;0.2
; INIT printing object Bridge Test.stl id:0 copy 0
G1 E-0.75 F3000
G1 Z0.6 F24000
; printing object Bridge Test.stl id:0 copy 0
G1 X65.149 Y46.957
G1 Z0.2
G1 E0.75 F1800
;TYPE:External perimeter
;WIDTH:0.56
G1 F1829
G1 X40.299 Y90 E2.13693
G1 X65.149 Y133.043 E2.13693
G1 X114.851 Y133.043 E2.13693
G1 X139.701 Y90 E2.13693
G1 X114.851 Y46.957 E2.13693
G1 X65.209 Y46.957 E2.13435
;WIPE_START
G1 X64.773 Y46.82 F24000
;WIPE_END
G1 X64.859 Y46.455
G1 F1829
G1 X65.65 Y46.44 E0.03402
G1 X114.35 Y46.44 E2.09388
G1 X114.844 Y46.448 E0.02124
G1 X115.141 Y46.454 E0.01275
G1 X115.549 Y47.133 E0.03404
G1 X139.899 Y89.308 E2.09386
G1 X140.282 Y90 E0.03402
G1 X139.899 Y90.692 E0.03402
G1 X115.549 Y132.867 E2.09386
G1 X115.141 Y133.545 E0.03402
G1 X114.35 Y133.56 E0.03402
G1 X65.65 Y133.56 E2.09386
G1 X64.859 Y133.545 E0.03402
G1 X64.451 Y132.867 E0.03402
G1 X40.101 Y90.692 E2.09386
G1 X39.718 Y90 E0.03402
G1 X40.101 Y89.308 E0.03402
G1 X64.451 Y47.133 E2.09386
G1 X64.828 Y46.506 E0.03144
;WIPE_START
G1 X65.167 Y46.71 F24000
;WIPE_END
; INIT stop printing object Bridge Test.stl id:0 copy 0
M106 S255
;LAYER_CHANGE
;Z:0.4
;HEIGHT:0.2
TIMELAPSE_TAKE_FRAME
; stop printing object Bridge Test.stl id:0 copy 0
G1 Z0.4 F24000
;0.4
M104 S205 ; set temperature
M140 S55 ; set bed temperature
; INIT printing object Bridge Test.stl id:0 copy 0
; printing object Bridge Test.stl id:0 copy 0
G1 X65.225 Y47.089
;WIDTH:0.42
G1 F1817
G1 X40.45 Y90 E1.5536
G1 X65.225 Y132.911 E1.5536
G1 X114.775 Y132.911 E1.5536
G1 X139.55 Y90 E1.5536
G1 X114.775 Y47.089 E1.5536
G1 X65.285 Y47.089 E1.55171
;WIPE_START
G1 X64.849 Y46.952 F24000
;WIPE_END
G1 X64.775 Y46.309
G1 F1817
G1 X115.225 Y46.309 E1.58183
G1 X140.45 Y90 E1.58183
G1 X115.225 Y133.691 E1.58183
G1 X64.775 Y133.691 E1.58183
G1 X39.55 Y90 E1.58183
G1 X64.745 Y46.361 E1.57995
;WIPE_START
G1 X65.081 Y46.566 F24000
;WIPE_END
; INIT stop printing object Bridge Test.stl id:0 copy 0
;LAYER_CHANGE
;Z:0.6
;HEIGHT:0.2
TIMELAPSE_TAKE_FRAME
; stop printing object Bridge Test.stl id:0 copy 0
G1 Z0.6 F24000
;0.6
; INIT printing object Bridge Test.stl id:0 copy 0
; printing object Bridge Test.stl id:0 copy 0
G1 X66.523 Y47.089
G1 F1944
G1 X66.42 Y47.473 E0.01246
G1 X66.51 Y47.524 E0.00324
;TYPE:Overhang perimeter
;WIDTH:0.357771
;HEIGHT:0.357771
G1 F17904.931
G1 X66.632 Y47.595 E0.00588
G1 X138.408 Y89.035 E3.46405
G1 X138.53 Y89.105 E0.00588
G1 X138.62 Y89.157 E0.00432
G1 X138.732 Y89.044 E0.00666
;TYPE:External perimeter
;WIDTH:0.42
;HEIGHT:0.2
G1 F1944
G1 X138.901 Y88.876 E0.00747
G1 X114.775 Y47.089 E1.51289
G1 X66.583 Y47.089 E1.51101
;WIPE_START
G1 X66.321 Y47.053 F24000
;WIPE_END
G1 E-0.75 F3000
G1 Z1 F24000
G1 X138.901 Y91.124
G1 Z0.6
G1 E0.75 F1800
G1 F1944
G1 X138.62 Y90.843 E0.01246
G1 X138.53 Y90.895 E0.00324
;TYPE:Overhang perimeter
;WIDTH:0.357771
;HEIGHT:0.357771
G1 F17904.931
G1 X138.408 Y90.965 E0.00588
G1 X66.632 Y132.405 E3.46405
G1 X66.42 Y132.527 E0.0102
G1 X66.462 Y132.681 E0.00666
;TYPE:External perimeter
;WIDTH:0.42
;HEIGHT:0.2
G1 F1944
G1 X66.523 Y132.911 E0.00747
G1 X114.775 Y132.911 E1.51289
G1 X138.871 Y91.176 E1.51101
;WIPE_START
G1 X139.032 Y90.967 F24000
;WIPE_END
G1 X139.55 Y90
G1 F1944
G1 X139.364 Y89.679 E0.01161
G1 X138.966 Y89.449 E0.01442
;TYPE:Overhang perimeter
;WIDTH:0.357771
;HEIGHT:0.357771
G1 F17904.931
G1 X138.61 Y89.244 E0.01719
G1 X138.488 Y89.173 E0.00588
G1 X66.472 Y47.595 E3.47563
G1 X66.35 Y47.524 E0.00588
;TYPE:External perimeter
;WIDTH:0.42
;HEIGHT:0.2
G1 F1944
G1 X65.994 Y47.319 E0.01289
G1 X65.595 Y47.089 E0.01442
G1 X65.225 Y47.089 E0.01161
G1 X65.04 Y47.409 E0.01161
G1 X65.04 Y47.869 E0.01442
;TYPE:Overhang perimeter
;WIDTH:0.357771
;HEIGHT:0.357771
G1 F17904.931
G1 X65.04 Y131.719 E3.50458
;TYPE:External perimeter
;WIDTH:0.42
;HEIGHT:0.2
G1 F1944
G1 X65.04 Y132.591 E0.02732
G1 X65.225 Y132.911 E0.01161
G1 X65.595 Y132.911 E0.01161
G1 X65.994 Y132.681 E0.01442
;TYPE:Overhang perimeter
;WIDTH:0.357771
;HEIGHT:0.357771
G1 F17904.931
G1 X66.35 Y132.476 E0.01719
G1 X66.472 Y132.405 E0.00588
G1 X138.488 Y90.827 E3.47563
G1 X138.61 Y90.756 E0.00588
;TYPE:External perimeter
;WIDTH:0.42
;HEIGHT:0.2
G1 F1944
G1 X139.022 Y90.519 E0.0149
G1 X139.364 Y90.321 E0.01242
G1 X139.52 Y90.052 E0.00973
;WIPE_START
G1 X139.833 Y89.762 F24000
;WIPE_END
G1 E-0.75 F3000
G1 Z1 F24000
G1 X64.576 Y48.213
G1 Z0.6
G1 E0.75 F1800
G1 F1944
G1 X40.45 Y90 E1.51289

G1 X64.576 Y131.787 E1.51289
G1 X64.806 Y131.725 E0.00747
;TYPE:Overhang perimeter
;WIDTH:0.357771
;HEIGHT:0.357771
G1 F17904.931
G1 X64.96 Y131.684 E0.00666
G1 X64.96 Y48.419 E3.48013
;TYPE:External perimeter
;WIDTH:0.42
;HEIGHT:0.2
G1 F1944
G1 X64.96 Y48.316 E0.00324
G1 X64.634 Y48.229 E0.01058
;WIPE_START
G1 X64.214 Y48.044 F24000
;WIPE_END
G1 X64.775 Y46.309
G1 F1944
G1 X115.225 Y46.309 E1.58183
G1 X140.45 Y90 E1.58183
G1 X115.225 Y133.691 E1.58183
G1 X64.775 Y133.691 E1.58183
G1 X39.55 Y90 E1.58183
G1 X64.745 Y46.361 E1.57995
;WIPE_START
G1 X65.081 Y46.566 F24000
;WIPE_END
; INIT stop printing object Bridge Test.stl id:0 copy 0
;LAYER_CHANGE
;Z:0.8
;HEIGHT:0.2
TIMELAPSE_TAKE_FRAME
; stop printing object Bridge Test.stl id:0 copy 0
G1 Z0.8 F24000
;0.8
; INIT printing object Bridge Test.stl id:0 copy 0
G1 E-0.75 F3000
G1 Z1.2 F24000
; printing object Bridge Test.stl id:0 copy 0
G1 X66.523 Y132.911
G1 Z0.8
G1 E0.75 F1800
G1 F3464
G1 X114.775 Y132.911 E1.51289
G1 X138.901 Y91.124 E1.51289
G1 X138.62 Y90.843 E0.01246
G1 X66.42 Y132.527 E2.61395
G1 X66.508 Y132.853 E0.01058
;WIPE_START
G1 X66.558 Y133.31 F24000
;WIPE_END
G1 X64.96 Y131.684
G1 F3464
G1 X64.96 Y48.316 E2.61395
G1 X64.576 Y48.213 E0.01246
G1 X40.45 Y90 E1.51289
G1 X64.576 Y131.787 E1.51289
G1 X64.902 Y131.7 E0.01058
;WIPE_START
G1 X65.358 Y131.649 F24000
;WIPE_END
G1 X65.225 Y132.911
G1 F3464
G1 X65.595 Y132.911 E0.01161
G1 X139.364 Y90.321 E2.67079
G1 X139.55 Y90 E0.01161
G1 X139.364 Y89.679 E0.01161
G1 X65.595 Y47.089 E2.67079
G1 X65.225 Y47.089 E0.01161
G1 X65.04 Y47.409 E0.01161
G1 X65.04 Y132.591 E2.67079
G1 X65.195 Y132.859 E0.00973
;WIPE_START
G1 X65.289 Y133.276 F24000
;WIPE_END
G1 E-0.75 F3000
G1 Z1.2 F24000
G1 X66.523 Y47.089
G1 Z0.8
G1 E0.75 F1800
G1 F3464
G1 X66.42 Y47.473 E0.01246
G1 X138.62 Y89.157 E2.61395
G1 X138.901 Y88.876 E0.01246
G1 X114.775 Y47.089 E1.51289
G1 X66.583 Y47.089 E1.51101
;WIPE_START
G1 X66.132 Y47.02 F24000
;WIPE_END
G1 X64.775 Y46.309
G1 F3464
G1 X115.225 Y46.309 E1.58183
G1 X140.45 Y90 E1.58183
G1 X115.225 Y133.691 E1.58183
G1 X64.775 Y133.691 E1.58183
G1 X39.55 Y90 E1.58183
G1 X64.745 Y46.361 E1.57995
;WIPE_START
G1 X65.081 Y46.566 F24000
;WIPE_END
G1 X64.364 Y48.124
;TYPE:Internal infill
;WIDTH:0.44
G1 F3464
G1 X63.922 Y48.243 E0.01511
G1 E-0.75 F3000
G1 Z1.2 F24000
G1 X66.553 Y133.139
G1 Z0.8
G1 E0.75 F1800
G1 F3464
G1 X66.876 Y133.463 E0.01511
G1 E-0.75 F3000
G1 Z1.2 F24000
G1 X139.083 Y88.736
G1 Z0.8
G1 E0.75 F1800
G1 F3464
G1 X139.202 Y88.294 E0.01511
; INIT stop printing object Bridge Test.stl id:0 copy 0
;LAYER_CHANGE
;Z:1
;HEIGHT:0.2
TIMELAPSE_TAKE_FRAME
; stop printing object Bridge Test.stl id:0 copy 0
G1 Z1 F24000
;1
; INIT printing object Bridge Test.stl id:0 copy 0
G1 E-0.75 F3000
G1 Z1.4 F24000
; printing object Bridge Test.stl id:0 copy 0
G1 X137.329 Y93.847
G1 Z1
G1 E0.75 F1800
;TYPE:External perimeter
;WIDTH:0.42
G1 F2223
G1 X137.064 Y93.566 E0.01208
G1 X136.956 Y93.62 E0.00379
;TYPE:Overhang perimeter
;WIDTH:0.357771
;HEIGHT:0.357771
G1 F17904.931
G1 X136.842 Y93.678 E0.00534
G1 X120.942 Y101.633 E0.7431
G1 X119.886 Y102.162 E0.04935
;WIDTH:0.42
;HEIGHT:0.2
G1 F18000
G1 X116.802 Y103.705 E0.10813
;TYPE:External perimeter
G1 F2223
G1 X116.322 Y103.945 E0.01683
G1 X109.182 Y107.518 E0.25033
G1 X108.702 Y107.758 E0.01683
;TYPE:Overhang perimeter
G1 F18000
G1 X105.618 Y109.301 E0.10813
;WIDTH:0.357771
;HEIGHT:0.357771
G1 F17904.931
G1 X104.562 Y109.829 E0.04935
G1 X65.476 Y129.387 E1.82676
;WIDTH:0.42
;HEIGHT:0.2
G1 F18000
G1 X65.27 Y129.49 E0.00721
G1 X64.73 Y129.76 E0.01893
G1 X64.524 Y129.863 E0.00721
G1 X64.156 Y130.048 E0.01291
G1 X63.909 Y130.171 E0.00867
;TYPE:External perimeter
G1 F2223
G1 X63.703 Y130.274 E0.00722
G1 X65.225 Y132.911 E0.09547
G1 X114.775 Y132.911 E1.5536
G1 X137.299 Y93.899 E1.41244
;WIPE_START
G1 X137.465 Y93.691 F24000
;WIPE_END
G1 X137.987 Y92.706
G1 F2223
G1 X137.795 Y92.579 E0.00722
;TYPE:Overhang perimeter
G1 F18000
G1 X137.564 Y92.427 E0.00867
G1 X137.249 Y92.219 E0.01185
G1 X136.991 Y92.049 E0.00968
G1 X136.517 Y91.736 E0.01781
G1 X136.295 Y91.59 E0.00833
;WIDTH:0.357771
;HEIGHT:0.357771
G1 F17904.931
G1 X98.73 Y66.803 E1.88107
G1 X97.744 Y66.153 E0.04935
;WIDTH:0.42
;HEIGHT:0.2
G1 F18000
G1 X94.866 Y64.253 E0.10813
;TYPE:External perimeter
G1 F2223
G1 X94.418 Y63.958 E0.01683
G1 X87.754 Y59.561 E0.25033
G1 X87.306 Y59.265 E0.01683
;TYPE:Overhang perimeter
G1 F18000
G1 X84.427 Y57.366 E0.10813
;WIDTH:0.357771
;HEIGHT:0.357771
G1 F17904.931
G1 X83.442 Y56.716 E0.04935
G1 X69.619 Y47.595 E0.69218
G1 X69.512 Y47.524 E0.00534
;TYPE:External perimeter
;WIDTH:0.42
;HEIGHT:0.2
G1 F2223
G1 X69.2 Y47.319 E0.01171
G1 X68.852 Y47.089 E0.01309
G1 X68.35 Y47.089 E0.01573
G1 X68.336 Y47.319 E0.00722
;TYPE:Overhang perimeter
G1 F18000
G1 X68.32 Y47.595 E0.00867
G1 X68.293 Y48.051 E0.01432
G1 X68.279 Y48.28 E0.00721
G1 X68.243 Y48.883 E0.01893
G1 X68.229 Y49.112 E0.00721
;WIDTH:0.357771
;HEIGHT:0.357771
G1 F17904.931
G1 X65.546 Y94.038 E1.88107
G1 X65.476 Y95.217 E0.04935
;WIDTH:0.42
;HEIGHT:0.2
G1 F18000
G1 X65.27 Y98.66 E0.10813
;TYPE:External perimeter
G1 F2223
G1 X65.238 Y99.195 E0.01683
G1 X64.762 Y107.165 E0.25033
G1 X64.73 Y107.701 E0.01683
;TYPE:Overhang perimeter
G1 F18000
G1 X64.524 Y111.143 E0.10813
;WIDTH:0.357771
;HEIGHT:0.357771
G1 F17904.931
G1 X64.454 Y112.322 E0.04935
G1 X63.467 Y128.853 E0.69218
G1 X63.459 Y128.981 E0.00534
;TYPE:External perimeter
;WIDTH:0.42
;HEIGHT:0.2
G1 F2223
G1 X63.433 Y129.412 E0.01353
G1 X63.412 Y129.771 E0.01127
G1 X63.663 Y130.205 E0.01573
G1 X63.84 Y130.116 E0.00622
;TYPE:Overhang perimeter
G1 F18000
G1 X64.116 Y129.978 E0.00967
G1 X64.524 Y129.774 E0.01432
G1 X64.73 Y129.671 E0.00721
G1 X65.27 Y129.401 E0.01893
G1 X65.476 Y129.298 E0.00721
;WIDTH:0.357771
;HEIGHT:0.357771
G1 F17904.931
G1 X105.724 Y109.159 E1.88108
G1 X106.78 Y108.63 E0.04935
;WIDTH:0.42
;HEIGHT:0.2
G1 F18000
G1 X109.864 Y107.087 E0.10813
;TYPE:External perimeter
G1 F2223
G1 X110.344 Y106.847 E0.01683
G1 X117.484 Y103.274 E0.25033
G1 X117.964 Y103.034 E0.01683
;TYPE:Overhang perimeter
G1 F18000
G1 X121.048 Y101.491 E0.10813
;WIDTH:0.357771
;HEIGHT:0.357771
G1 F17904.931
G1 X122.104 Y100.963 E0.04935
G1 X136.915 Y93.552 E0.69218
G1 X137.029 Y93.495 E0.00534
;TYPE:External perimeter
;WIDTH:0.42
;HEIGHT:0.2
G1 F2223
G1 X137.415 Y93.302 E0.01353
G1 X137.736 Y93.141 E0.01127
G1 X137.957 Y92.758 E0.01385
;WIPE_START
G1 X138.093 Y92.539 F24000
;WIPE_END
G1 E-0.75 F3000
G1 Z1.4 F24000
G1 X68.27 Y47.089
G1 Z1
G1 E0.75 F1800
G1 F2223
G1 X65.225 Y47.089 E0.09547

G1 X40.45 Y90 E1.5536
G1 X63.004 Y129.064 E1.41432
G1 X63.238 Y129.009 E0.00753
;TYPE:Overhang perimeter
;WIDTH:0.357771
;HEIGHT:0.357771
G1 F17904.931
G1 X63.379 Y128.976 E0.00607
G1 X63.386 Y128.855 E0.00505
G1 X63.394 Y128.728 E0.00534
G1 X64.454 Y110.98 E0.7431
G1 X64.524 Y109.801 E0.04935
;WIDTH:0.42
;HEIGHT:0.2
G1 F18000
G1 X64.73 Y106.359 E0.10813
;TYPE:External perimeter
G1 F2223
G1 X64.762 Y105.823 E0.01683
G1 X65.238 Y97.853 E0.25033
G1 X65.27 Y97.318 E0.01683
;TYPE:Overhang perimeter
G1 F18000
G1 X65.476 Y93.875 E0.10813
;WIDTH:0.357771
;HEIGHT:0.357771
G1 F17904.931
G1 X65.546 Y92.697 E0.04935
G1 X68.152 Y49.068 E1.82676
;WIDTH:0.42
;HEIGHT:0.2
G1 F18000
G1 X68.165 Y48.838 E0.00721
G1 X68.201 Y48.235 E0.01893
G1 X68.215 Y48.006 E0.00721
G1 X68.24 Y47.595 E0.01291
G1 X68.256 Y47.319 E0.00867
;TYPE:External perimeter
G1 F2223
G1 X68.266 Y47.149 E0.00534
;WIPE_START
G1 X68.278 Y46.689 F24000
;WIPE_END
G1 X69.667 Y47.089
G1 F2223
G1 X69.608 Y47.287 E0.00648
;TYPE:Overhang perimeter
;WIDTH:0.357771
;HEIGHT:0.357771
G1 F17904.931
G1 X69.556 Y47.458 E0.00747
G1 X69.657 Y47.524 E0.00505
G1 X69.764 Y47.595 E0.00534
G1 X84.604 Y57.386 E0.7431
G1 X85.589 Y58.037 E0.04935
;WIDTH:0.42
;HEIGHT:0.2
G1 F18000
G1 X88.468 Y59.936 E0.10813
;TYPE:External perimeter
G1 F2223
G1 X88.916 Y60.232 E0.01683
G1 X95.58 Y64.629 E0.25033
G1 X96.028 Y64.924 E0.01683
;TYPE:Overhang perimeter
G1 F18000
G1 X98.906 Y66.824 E0.10813
;WIDTH:0.357771
;HEIGHT:0.357771
G1 F17904.931
G1 X99.892 Y67.474 E0.04935
G1 X136.373 Y91.545 E1.82676
;WIDTH:0.42
;HEIGHT:0.2
G1 F18000
G1 X136.594 Y91.691 E0.00833
G1 X137.039 Y91.985 E0.01669
G1 X137.326 Y92.174 E0.0108
G1 X137.604 Y92.358 E0.01045
G1 X137.835 Y92.51 E0.00867
;TYPE:External perimeter
G1 F2223
G1 X138.027 Y92.637 E0.00722
G1 X139.55 Y90 E0.09547
G1 X114.775 Y47.089 E1.5536
G1 X69.727 Y47.089 E1.41244
;WIPE_START
G1 X69.464 Y47.049 F24000
;WIPE_END
G1 X64.775 Y46.309
G1 F2223
G1 X115.225 Y46.309 E1.58183
G1 X140.45 Y90 E1.58183
G1 X115.225 Y133.691 E1.58183
G1 X64.775 Y133.691 E1.58183
G1 X39.55 Y90 E1.58183
G1 X64.745 Y46.361 E1.57995
;WIPE_START
G1 X65.081 Y46.566 F24000
;WIPE_END
; INIT stop printing object Bridge Test.stl id:0 copy 0
;LAYER_CHANGE
;Z:1.2
;HEIGHT:0.2
TIMELAPSE_TAKE_FRAME
; stop printing object Bridge Test.stl id:0 copy 0
G1 Z1.2 F24000
;1.2
; INIT printing object Bridge Test.stl id:0 copy 0
G1 E-0.75 F3000
G1 Z1.6 F24000
; printing object Bridge Test.stl id:0 copy 0
G1 X69.556 Y47.458
G1 Z1.2
G1 E0.75 F1800
G1 F3414
G1 X138.027 Y92.637 E2.57209
G1 X139.55 Y90 E0.09547
G1 X114.775 Y47.089 E1.5536
G1 X69.667 Y47.089 E1.41432
G1 X69.574 Y47.4 E0.0102
;WIPE_START
G1 X69.37 Y47.811 F24000
;WIPE_END
G1 X68.35 Y47.089
G1 F3414
G1 X63.412 Y129.771 E2.59705
G1 X63.663 Y130.205 E0.01573
G1 X137.736 Y93.141 E2.59705
G1 X137.987 Y92.706 E0.01573
G1 X68.852 Y47.089 E2.59705
G1 X68.41 Y47.089 E0.01385
;WIPE_START
G1 X67.95 Y47.073 F24000
;WIPE_END
G1 X68.27 Y47.089
G1 F3414
G1 X65.225 Y47.089 E0.09547
G1 X40.45 Y90 E1.5536
G1 X63.004 Y129.064 E1.41432
G1 X63.379 Y128.976 E0.01208
G1 X68.266 Y47.149 E2.57021
;WIPE_START
G1 X68.278 Y46.689 F24000
;WIPE_END
G1 E-0.75 F3000
G1 Z1.6 F24000
G1 X63.703 Y130.274
G1 Z1.2
G1 E0.75 F1800
G1 F3414
G1 X65.225 Y132.911 E0.09547
G1 X114.775 Y132.911 E1.5536
G1 X137.329 Y93.847 E1.41432
G1 X137.064 Y93.566 E0.01208
G1 X63.756 Y130.248 E2.57021
;WIPE_START
G1 X63.352 Y130.467 F24000
;WIPE_END
G1 E-0.75 F3000
G1 Z1.6 F24000
G1 X64.775 Y133.691
G1 Z1.2
G1 E0.75 F1800
G1 F3414
G1 X39.55 Y90 E1.58183
G1 X64.775 Y46.309 E1.58183
G1 X115.225 Y46.309 E1.58183
G1 X140.45 Y90 E1.58183
G1 X115.225 Y133.691 E1.58183
G1 X64.835 Y133.691 E1.57995
;WIPE_START
