; G-Code generated by Simplify3D(R) Version 4.1.2
; Jul 7, 2022 at 5:33:07 PM
; Settings Summary
;   processName, KP3SV1Perfect
;   applyToModels,square_tower
;   profileName,KINGROON KP3S (modified)
;   profileVersion,2020-12-22 10:00:00
;   baseProfile,KINGROON KP3S(2)
;   printMaterial,PLA
;   printQuality,Medium
;   printExtruders,
;   extruderName,Primary Extruder
;   extruderToolheadNumber,0
;   extruderDiameter,0.4
;   extruderAutoWidth,0
;   extruderWidth,0.4
;   extrusionMultiplier,1
;   extruderUseRetract,1
;   extruderRetractionDistance,6
;   extruderExtraRestartDistance,0
;   extruderRetractionZLift,0
;   extruderRetractionSpeed,2400
;   extruderUseCoasting,0
;   extruderCoastingDistance,0.2
;   extruderUseWipe,0
;   extruderWipeDistance,5
;   primaryExtruder,0
;   layerHeight,0.3
;   topSolidLayers,4
;   bottomSolidLayers,3
;   perimeterOutlines,3
;   printPerimetersInsideOut,1
;   startPointOption,2
;   startPointOriginX,0
;   startPointOriginY,0
;   sequentialIslands,0
;   spiralVaseMode,0
;   firstLayerHeightPercentage,100
;   firstLayerWidthPercentage,100
;   firstLayerUnderspeed,0.5
;   useRaft,0
;   raftExtruder,0
;   raftTopLayers,3
;   raftBaseLayers,2
;   raftOffset,5
;   raftSeparationDistance,0.14
;   raftTopInfill,100
;   aboveRaftSpeedMultiplier,0.3
;   useSkirt,1
;   skirtExtruder,0
;   skirtLayers,1
;   skirtOutlines,2
;   skirtOffset,4
;   usePrimePillar,0
;   primePillarExtruder,999
;   primePillarWidth,12
;   primePillarLocation,7
;   primePillarSpeedMultiplier,1
;   useOozeShield,0
;   oozeShieldExtruder,999
;   oozeShieldOffset,2
;   oozeShieldOutlines,1
;   oozeShieldSidewallShape,1
;   oozeShieldSidewallAngle,30
;   oozeShieldSpeedMultiplier,1
;   infillExtruder,0
;   internalInfillPattern,Rectilinear
;   externalInfillPattern,Rectilinear
;   infillPercentage,0
;   outlineOverlapPercentage,15
;   infillExtrusionWidthPercentage,100
;   minInfillLength,5
;   infillLayerInterval,1
;   internalInfillAngles,45,-45
;   overlapInternalInfillAngles,0
;   externalInfillAngles,45,-45
;   generateSupport,0
;   supportExtruder,0
;   supportInfillPercentage,30
;   supportExtraInflation,0
;   supportBaseLayers,0
;   denseSupportExtruder,0
;   denseSupportLayers,0
;   denseSupportInfillPercentage,70
;   supportLayerInterval,1
;   supportHorizontalPartOffset,0.3
;   supportUpperSeparationLayers,1
;   supportLowerSeparationLayers,1
;   supportType,0
;   supportGridSpacing,4
;   maxOverhangAngle,45
;   supportAngles,0
;   temperatureName,Primary Extruder,Heated Bed
;   temperatureNumber,0,0
;   temperatureSetpointCount,1,1
;   temperatureSetpointLayers,1,1
;   temperatureSetpointTemperatures,205,60
;   temperatureStabilizeAtStartup,1,1
;   temperatureHeatedBed,0,1
;   fanLayers,1,2
;   fanSpeeds,0,100
;   blipFanToFullPower,0
;   adjustSpeedForCooling,0
;   minSpeedLayerTime,15
;   minCoolingSpeedSlowdown,20
;   increaseFanForCooling,0
;   minFanLayerTime,45
;   maxCoolingFanSpeed,100
;   increaseFanForBridging,0
;   bridgingFanSpeed,100
;   use5D,1
;   relativeEdistances,0
;   allowEaxisZeroing,1
;   independentExtruderAxes,0
;   includeM10123,0
;   stickySupport,1
;   applyToolheadOffsets,0
;   gcodeXoffset,0
;   gcodeYoffset,0
;   gcodeZoffset,0
;   overrideMachineDefinition,1
;   machineTypeOverride,0
;   strokeXoverride,180
;   strokeYoverride,180
;   strokeZoverride,170
;   originOffsetXoverride,-5
;   originOffsetYoverride,-5
;   originOffsetZoverride,0
;   homeXdirOverride,-1
;   homeYdirOverride,-1
;   homeZdirOverride,-1
;   flipXoverride,1
;   flipYoverride,-1
;   flipZoverride,1
;   toolheadOffsets,0,0|0,0|0,0|0,0|0,0|0,0
;   overrideFirmwareConfiguration,1
;   firmwareTypeOverride,RepRap (Marlin/Repetier/Sprinter)
;   GPXconfigOverride,r2
;   baudRateOverride,115200
;   overridePrinterModels,1
;   printerModelsOverride
;   startingGcode,G28 ; home all axes,print_start EXTRUDER={first_layer_temperature[initial_extruder]} BED=[first_layer_bed_temperature]
;   layerChangeGcode,M117 Layer [current_layer] of [total_layer_count] ; layer 
;   retractionGcode,
;   toolChangeGcode,
;   endingGcode,G91  ; make coordinates relative,G1 Z2 F5000  ; move Z another 2mm up,G90  ; use absolute coordinates again,G1 X5 Y180 F3000.0 ; move carriage left and bed towards front,G1 E-5 ; retract filament,G92 E0 ; reset extruder,M104 S0 ; turn off extruder,M140 S0 ; turn off bed,M107 ; turn off part cooling fan,M84 ; disable motors,
;   exportFileFormat,gcode
;   celebration,0
;   celebrationSong,Star Wars
;   postProcessing,
;   defaultSpeed,5400
;   outlineUnderspeed,0.5
;   solidInfillUnderspeed,0.8
;   supportUnderspeed,0.8
;   rapidXYspeed,6000
;   rapidZspeed,1000
;   minBridgingArea,50
;   bridgingExtraInflation,0
;   bridgingExtrusionMultiplier,1
;   bridgingSpeedMultiplier,1
;   useFixedBridgingAngle,0
;   fixedBridgingAngle,0
;   applyBridgingToPerimeters,0
;   filamentDiameters,1.75|1.75|1.75|1.75|1.75|1.75
;   filamentPricesPerKg,17|46|46|46|46|46
;   filamentDensities,1.24|1.25|1.25|1.25|1.25|1.25
;   useMinPrintHeight,0
;   minPrintHeight,0
;   useMaxPrintHeight,0
;   maxPrintHeight,0
;   useDiaphragm,0
;   diaphragmLayerInterval,20
;   robustSlicing,1
;   mergeAllIntoSolid,0
;   onlyRetractWhenCrossingOutline,1
;   retractBetweenLayers,1
;   useRetractionMinTravel,0
;   retractionMinTravel,3
;   retractWhileWiping,0
;   onlyWipeOutlines,1
;   avoidCrossingOutline,0
;   maxMovementDetourFactor,3
;   toolChangeRetractionDistance,12
;   toolChangeExtraRestartDistance,-0.5
;   toolChangeRetractionSpeed,600
;   externalThinWallType,0
;   internalThinWallType,2
;   thinWallAllowedOverlapPercentage,10
;   singleExtrusionMinLength,1
;   singleExtrusionMinPrintingWidthPercentage,50
;   singleExtrusionMaxPrintingWidthPercentage,200
;   singleExtrusionEndpointExtension,0.2
;   horizontalSizeCompensation,0
G90
M82
M106 S0
M140 S60
M190 S60
M104 S205 T0
M109 S205 T0
G28 ; home all axes
print_start EXTRUDER={first_layer_temperature[initial_extruder]} BED=[first_layer_bed_temperature]
; process  KP3SV1Perfect
; layer 1, Z = 0.300
T0
G92 E0.0000
G1 E-6.0000 F2400
M117 Layer 1 of 167 ; layer 
; feature skirt
; tool H0.300 W0.400
G1 Z0.300 F1000
G1 X55.397 Y55.027 F6000
G1 E0.0000 F2400
G92 E0.0000
G1 X55.755 Y54.705 E0.0241 F2700
G1 X56.991 Y53.807 E0.1003
G1 X57.409 Y53.566 E0.1243
G1 X58.804 Y52.944 E0.2005
G1 X59.263 Y52.795 E0.2246
G1 X60.757 Y52.478 E0.3008
G1 X61.236 Y52.427 E0.3248
G1 X62.764 Y52.427 E0.4010
G1 X63.243 Y52.478 E0.4251
G1 X64.737 Y52.795 E0.5013
G1 X65.196 Y52.944 E0.5253
G1 X66.591 Y53.566 E0.6016
G1 X67.009 Y53.807 E0.6256
G1 X68.245 Y54.705 E0.7018
G1 X68.603 Y55.027 E0.7259
G1 X68.939 Y55.400 E0.7509
G1 X111.061 Y55.400 E2.8524
G1 X111.397 Y55.027 E2.8774
G1 X111.755 Y54.704 E2.9015
G1 X112.991 Y53.807 E2.9777
G1 X113.409 Y53.566 E3.0018
G1 X114.804 Y52.944 E3.0780
G1 X115.263 Y52.795 E3.1020
G1 X116.757 Y52.478 E3.1782
G1 X117.236 Y52.427 E3.2023
G1 X118.764 Y52.427 E3.2785
G1 X119.243 Y52.478 E3.3025
G1 X120.737 Y52.795 E3.3787
G1 X121.196 Y52.944 E3.4028
G1 X122.591 Y53.566 E3.4790
G1 X123.009 Y53.807 E3.5031
G1 X124.245 Y54.704 E3.5793
G1 X124.603 Y55.027 E3.6033
G1 X125.625 Y56.162 E3.6795
G1 X125.908 Y56.552 E3.7036
G1 X126.672 Y57.875 E3.7798
G1 X126.868 Y58.316 E3.8038
G1 X127.340 Y59.768 E3.8800
G1 X127.440 Y60.240 E3.9041
G1 X127.600 Y61.759 E3.9803
G1 X127.600 Y62.241 E4.0044
G1 X127.440 Y63.760 E4.0806
G1 X127.340 Y64.232 E4.1046
G1 X126.868 Y65.684 E4.1808
G1 X126.672 Y66.125 E4.2049
G1 X125.908 Y67.448 E4.2811
G1 X125.625 Y67.838 E4.3051
G1 X124.600 Y68.975 E4.3815
G1 X124.603 Y111.027 E6.4796
G1 X125.625 Y112.162 E6.5558
G1 X125.908 Y112.552 E6.5798
G1 X126.672 Y113.875 E6.6560
G1 X126.868 Y114.316 E6.6801
G1 X127.340 Y115.768 E6.7563
G1 X127.440 Y116.240 E6.7803
G1 X127.600 Y117.759 E6.8565
G1 X127.600 Y118.241 E6.8806
G1 X127.440 Y119.760 E6.9568
G1 X127.340 Y120.232 E6.9808
G1 X126.868 Y121.684 E7.0570
G1 X126.672 Y122.125 E7.0811
G1 X125.908 Y123.448 E7.1573
G1 X125.625 Y123.838 E7.1814
G1 X124.603 Y124.973 E7.2576
G1 X124.244 Y125.296 E7.2816
G1 X123.009 Y126.193 E7.3578
G1 X122.591 Y126.434 E7.3819
G1 X121.196 Y127.056 E7.4581
G1 X120.737 Y127.205 E7.4821
G1 X119.243 Y127.522 E7.5584
G1 X118.764 Y127.573 E7.5824
G1 X117.236 Y127.573 E7.6586
G1 X116.757 Y127.522 E7.6826
G1 X115.263 Y127.205 E7.7589
G1 X114.804 Y127.056 E7.7829
G1 X113.409 Y126.434 E7.8591
G1 X112.991 Y126.193 E7.8832
G1 X111.756 Y125.296 E7.9594
G1 X111.397 Y124.973 E7.9834
G1 X111.061 Y124.600 E8.0085
G1 X68.939 Y124.600 E10.1100
G1 X68.603 Y124.973 E10.1350
G1 X68.244 Y125.295 E10.1591
G1 X67.009 Y126.193 E10.2353
G1 X66.591 Y126.434 E10.2593
G1 X65.196 Y127.056 E10.3355
G1 X64.737 Y127.205 E10.3596
G1 X63.243 Y127.522 E10.4358
G1 X62.764 Y127.573 E10.4599
G1 X61.236 Y127.573 E10.5361
G1 X60.757 Y127.522 E10.5601
G1 X59.263 Y127.205 E10.6363
G1 X58.804 Y127.056 E10.6604
G1 X57.409 Y126.434 E10.7366
G1 X56.991 Y126.193 E10.7606
G1 X55.756 Y125.295 E10.8368
G1 X55.397 Y124.973 E10.8609
G1 X54.375 Y123.838 E10.9371
G1 X54.092 Y123.448 E10.9611
G1 X53.328 Y122.125 E11.0373
G1 X53.132 Y121.685 E11.0614
G1 X52.660 Y120.232 E11.1376
G1 X52.560 Y119.760 E11.1617
G1 X52.400 Y118.241 E11.2379
G1 X52.400 Y117.759 E11.2619
G1 X52.560 Y116.240 E11.3381
G1 X52.660 Y115.768 E11.3622
G1 X53.132 Y114.315 E11.4384
G1 X53.328 Y113.875 E11.4624
G1 X54.092 Y112.552 E11.5386
G1 X54.375 Y112.162 E11.5627
G1 X55.400 Y111.025 E11.6391
G1 X55.397 Y68.973 E13.7371
G1 X54.375 Y67.838 E13.8133
G1 X54.092 Y67.448 E13.8374
G1 X53.328 Y66.125 E13.9136
G1 X53.132 Y65.684 E13.9376
G1 X52.660 Y64.232 E14.0138
G1 X52.560 Y63.760 E14.0379
G1 X52.400 Y62.241 E14.1141
G1 X52.400 Y61.759 E14.1382
G1 X52.560 Y60.240 E14.2144
G1 X52.660 Y59.768 E14.2384
G1 X53.132 Y58.316 E14.3146
G1 X53.328 Y57.875 E14.3387
G1 X54.092 Y56.552 E14.4149
G1 X54.375 Y56.162 E14.4389
G1 X55.397 Y55.027 E14.5151
G92 E0.0000
G1 E-6.0000 F2400
G1 X55.680 Y55.310 F6000
G1 E0.0000 F2400
G92 E0.0000
G1 X56.008 Y55.016 E0.0220 F2700
G1 X57.209 Y54.143 E0.0961
G1 X57.591 Y53.923 E0.1180
G1 X58.948 Y53.318 E0.1922
G1 X59.366 Y53.182 E0.2141
G1 X60.819 Y52.873 E0.2882
G1 X61.257 Y52.827 E0.3102
G1 X62.743 Y52.827 E0.3843
G1 X63.181 Y52.873 E0.4063
G1 X64.634 Y53.182 E0.4804
G1 X65.052 Y53.318 E0.5023
G1 X66.409 Y53.922 E0.5765
G1 X66.791 Y54.143 E0.5984
G1 X67.992 Y55.016 E0.6725
G1 X68.320 Y55.310 E0.6945
G1 X68.760 Y55.800 E0.7274
G1 X111.240 Y55.800 E2.8467
G1 X111.680 Y55.310 E2.8795
G1 X112.008 Y55.016 E2.9015
G1 X113.209 Y54.143 E2.9756
G1 X113.591 Y53.922 E2.9976
G1 X114.948 Y53.318 E3.0717
G1 X115.366 Y53.182 E3.0936
G1 X116.820 Y52.873 E3.1678
G1 X117.257 Y52.827 E3.1897
G1 X118.743 Y52.827 E3.2638
G1 X119.180 Y52.873 E3.2858
G1 X120.634 Y53.182 E3.3599
G1 X121.052 Y53.318 E3.3819
G1 X122.409 Y53.922 E3.4560
G1 X122.791 Y54.143 E3.4779
G1 X123.992 Y55.016 E3.5521
G1 X124.320 Y55.310 E3.5740
G1 X125.314 Y56.414 E3.6481
G1 X125.572 Y56.771 E3.6701
G1 X126.315 Y58.057 E3.7442
G1 X126.494 Y58.459 E3.7662
G1 X126.953 Y59.872 E3.8403
G1 X127.045 Y60.302 E3.8622
G1 X127.200 Y61.780 E3.9363
G1 X127.200 Y62.220 E3.9583
G1 X127.045 Y63.698 E4.0324
G1 X126.953 Y64.128 E4.0544
G1 X126.494 Y65.541 E4.1285
G1 X126.315 Y65.943 E4.1505
G1 X125.572 Y67.229 E4.2246
G1 X125.314 Y67.586 E4.2465
G1 X124.320 Y68.690 E4.3207
G1 X124.200 Y68.797 E4.3287
G1 X124.200 Y111.203 E6.4443
G1 X124.320 Y111.310 E6.4523
G1 X125.314 Y112.414 E6.5264
G1 X125.572 Y112.771 E6.5484
G1 X126.315 Y114.057 E6.6225
G1 X126.494 Y114.459 E6.6445
G1 X126.953 Y115.872 E6.7186
G1 X127.045 Y116.302 E6.7405
G1 X127.200 Y117.780 E6.8147
G1 X127.200 Y118.220 E6.8366
G1 X127.045 Y119.698 E6.9107
G1 X126.953 Y120.128 E6.9327
G1 X126.494 Y121.541 E7.0068
G1 X126.315 Y121.943 E7.0288
G1 X125.572 Y123.229 E7.1029
G1 X125.314 Y123.586 E7.1248
G1 X124.320 Y124.690 E7.1990
G1 X123.992 Y124.984 E7.2209
G1 X122.791 Y125.857 E7.2950
G1 X122.409 Y126.077 E7.3170
G1 X121.052 Y126.682 E7.3911
G1 X120.634 Y126.818 E7.4131
G1 X119.180 Y127.127 E7.4872
G1 X118.743 Y127.173 E7.5092
G1 X117.257 Y127.173 E7.5833
G1 X116.820 Y127.127 E7.6052
G1 X115.366 Y126.818 E7.6793
G1 X114.948 Y126.682 E7.7013
G1 X113.591 Y126.077 E7.7754
G1 X113.209 Y125.857 E7.7974
G1 X112.008 Y124.984 E7.8715
G1 X111.680 Y124.690 E7.8935
G1 X111.240 Y124.200 E7.9263
G1 X68.760 Y124.200 E10.0456
G1 X68.320 Y124.690 E10.0785
G1 X67.992 Y124.984 E10.1004
G1 X66.791 Y125.857 E10.1746
G1 X66.409 Y126.077 E10.1965
G1 X65.052 Y126.682 E10.2706
G1 X64.634 Y126.818 E10.2926
G1 X63.181 Y127.127 E10.3667
G1 X62.743 Y127.173 E10.3887
G1 X61.257 Y127.173 E10.4628
G1 X60.819 Y127.127 E10.4847
G1 X59.366 Y126.818 E10.5589
G1 X58.948 Y126.682 E10.5808
G1 X57.590 Y126.077 E10.6549
G1 X57.209 Y125.857 E10.6769
G1 X56.008 Y124.984 E10.7510
G1 X55.680 Y124.690 E10.7730
G1 X54.686 Y123.586 E10.8471
G1 X54.428 Y123.230 E10.8690
G1 X53.685 Y121.943 E10.9432
G1 X53.506 Y121.541 E10.9651
G1 X53.047 Y120.128 E11.0392
G1 X52.955 Y119.698 E11.0612
G1 X52.800 Y118.220 E11.1353
G1 X52.800 Y117.780 E11.1573
G1 X52.955 Y116.302 E11.2314
G1 X53.047 Y115.872 E11.2534
G1 X53.506 Y114.459 E11.3275
G1 X53.685 Y114.057 E11.3494
G1 X54.428 Y112.770 E11.4235
G1 X54.686 Y112.414 E11.4455
G1 X55.680 Y111.310 E11.5196
G1 X55.800 Y111.203 E11.5276
G1 X55.800 Y68.797 E13.6433
G1 X55.680 Y68.690 E13.6513
G1 X54.686 Y67.586 E13.7254
G1 X54.428 Y67.230 E13.7474
G1 X53.685 Y65.943 E13.8215
G1 X53.506 Y65.541 E13.8434
G1 X53.047 Y64.128 E13.9175
G1 X52.955 Y63.697 E13.9395
G1 X52.800 Y62.220 E14.0136
G1 X52.800 Y61.780 E14.0356
G1 X52.955 Y60.303 E14.1097
G1 X53.047 Y59.872 E14.1317
G1 X53.506 Y58.459 E14.2058
G1 X53.685 Y58.057 E14.2277
G1 X54.428 Y56.770 E14.3018
G1 X54.686 Y56.414 E14.3238
G1 X55.680 Y55.310 E14.3979
G92 E0.0000
G1 E-6.0000 F2400
; feature inner perimeter
G1 X59.327 Y59.031 F6000
G1 E0.0000 F2400
G92 E0.0000
G1 X60.003 Y58.541 E0.0417 F2025
G1 X60.766 Y58.201 E0.0833
G1 X61.582 Y58.027 E0.1250
G1 X62.417 Y58.027 E0.1666
G1 X63.234 Y58.201 E0.2083
G1 X63.997 Y58.541 E0.2500
G1 X64.673 Y59.032 E0.2916
G1 X65.229 Y59.650 E0.3331
G1 X65.997 Y61.000 E0.4106
G1 X114.003 Y61.000 E2.8057
G1 X114.771 Y59.650 E2.8832
G1 X115.327 Y59.032 E2.9246
G1 X116.003 Y58.541 E2.9663
G1 X116.766 Y58.201 E3.0080
G1 X117.583 Y58.027 E3.0496
G1 X118.417 Y58.027 E3.0913
G1 X119.234 Y58.201 E3.1330
G1 X119.997 Y58.541 E3.1746
G1 X120.673 Y59.032 E3.2163
G1 X121.232 Y59.652 E3.2579
G1 X121.649 Y60.375 E3.2996
G1 X121.907 Y61.169 E3.3413
G1 X121.994 Y62.000 E3.3829
G1 X121.907 Y62.831 E3.4246
G1 X121.649 Y63.625 E3.4663
G1 X121.232 Y64.348 E3.5079
G1 X120.673 Y64.968 E3.5496
G1 X119.997 Y65.459 E3.5912
G1 X119.000 Y65.903 E3.6457
G1 X119.000 Y114.097 E6.0501
G1 X119.997 Y114.541 E6.1046
G1 X120.673 Y115.032 E6.1462
G1 X121.232 Y115.652 E6.1879
G1 X121.649 Y116.375 E6.2295
G1 X121.907 Y117.169 E6.2712
G1 X121.994 Y118.000 E6.3129
G1 X121.907 Y118.831 E6.3545
G1 X121.649 Y119.625 E6.3962
G1 X121.232 Y120.348 E6.4378
G1 X120.673 Y120.968 E6.4795
G1 X119.997 Y121.459 E6.5212
G1 X119.234 Y121.799 E6.5628
G1 X118.418 Y121.973 E6.6045
G1 X117.582 Y121.973 E6.6462
G1 X116.766 Y121.799 E6.6878
G1 X116.003 Y121.459 E6.7295
G1 X115.327 Y120.968 E6.7711
G1 X114.771 Y120.350 E6.8126
G1 X114.003 Y119.000 E6.8901
G1 X65.997 Y119.000 E9.2852
G1 X65.229 Y120.350 E9.3627
G1 X64.673 Y120.968 E9.4042
G1 X63.997 Y121.459 E9.4458
G1 X63.234 Y121.799 E9.4875
G1 X62.418 Y121.973 E9.5291
G1 X61.582 Y121.973 E9.5708
G1 X60.766 Y121.799 E9.6125
G1 X60.003 Y121.459 E9.6541
G1 X59.327 Y120.968 E9.6958
G1 X58.768 Y120.348 E9.7375
G1 X58.351 Y119.625 E9.7791
G1 X58.093 Y118.831 E9.8208
G1 X58.006 Y118.000 E9.8624
G1 X58.093 Y117.169 E9.9041
G1 X58.351 Y116.375 E9.9458
G1 X58.768 Y115.652 E9.9874
G1 X59.327 Y115.032 E10.0291
G1 X60.003 Y114.541 E10.0708
G1 X61.000 Y114.097 E10.1252
G1 X61.000 Y65.903 E12.5296
G1 X60.003 Y65.459 E12.5841
G1 X59.327 Y64.968 E12.6257
G1 X58.768 Y64.348 E12.6674
G1 X58.351 Y63.625 E12.7090
G1 X58.093 Y62.831 E12.7507
G1 X58.006 Y62.000 E12.7924
G1 X58.093 Y61.169 E12.8340
