; generated by SuperSlicer 2.3.57 on 2022-07-06 at 03:56:18 UTC


;
;

;
;
; TODO: check the size of the extruder and the y-bar clearance. Optimize & test supports.

; external perimeters extrusion width = 0.42mm
; perimeters extrusion width = 0.44mm
; infill extrusion width = 0.44mm
; solid infill extrusion width = 0.44mm
; top infill extrusion width = 0.44mm
; first layer extrusion width = 0.56mm

; object:{"name":"Voron V7 Test Tube","id":"Voron V7 Test Tube.stl id:0 copy 0","object_center":[90.000000,90.000000,0.000000],"boundingbox_center":[90.000000,90.000000,15.000000],"boundingbox_size":[30.000000,30.000000,30.000000]}
; plater:{"center":[90.000000,90.000000,0.000000],"boundingbox_center":[90.000000,90.000000,15.000000],"boundingbox_size":[30.000000,30.000000,30.000000]}

;TYPE:Custom
; M190 S0
; M109 S0 ; uncomment to remove set&wait temp gcode added automatically after this start gcode
print_start EXTRUDER=215 BED=60
M107
G21 ; set units to millimeters
G90 ; use absolute coordinates
M83 ; use relative distances for extrusion
; M190 S0
; M109 S0 ; uncomment to remove set&wait temp gcode added automatically after this start gcode
print_start_pla EXTRUDER=215 BED=60 CHAMBER=15
M104 S215 ; set temperature
M109 S215 ; set temperature and wait for it to be reached
M190 S60 ; set bed temperature and wait for it to be reached
M107
;LAYER_CHANGE
;Z:0.2
;HEIGHT:0.2
TIMELAPSE_TAKE_FRAME
G1 Z0.2 F24000
;0.2
; INIT printing object Voron V7 Test Tube.stl id:0 copy 0
G1 E-0.75 F3000
G1 Z0.6 F24000
; printing object Voron V7 Test Tube.stl id:0 copy 0
G1 X83.826 Y83.945
G1 Z0.2
G1 E0.75 F1800
;TYPE:Internal perimeter
;WIDTH:0.56
G1 F3782
G1 X83.522 Y84.272 E0.01922
G1 X83.234 Y84.615 E0.01922
G1 X82.965 Y84.972 E0.01922
G1 X82.714 Y85.342 E0.01922
G1 X82.483 Y85.725 E0.01922
G1 X82.272 Y86.119 E0.01922
G1 X82.082 Y86.524 E0.01922
G1 X81.913 Y86.938 E0.01922
G1 X81.766 Y87.36 E0.01922
G1 X81.64 Y87.789 E0.01922
G1 X81.537 Y88.224 E0.01922
G1 X81.456 Y88.664 E0.01922
G1 X81.399 Y89.107 E0.01922
G1 X81.364 Y89.553 E0.01922
G1 X81.353 Y90 E0.01922
G1 X81.364 Y90.447 E0.01922
G1 X81.399 Y90.893 E0.01922
G1 X81.456 Y91.336 E0.01922
G1 X81.537 Y91.776 E0.01922
G1 X81.64 Y92.211 E0.01922
G1 X81.766 Y92.64 E0.01922
G1 X81.913 Y93.062 E0.01922
G1 X82.082 Y93.476 E0.01919
G1 X82.178 Y93.68 E0.00972
G1 X82.273 Y93.881 E0.00957
G1 X82.483 Y94.275 E0.01919
G1 X82.714 Y94.658 E0.01922
G1 X82.965 Y95.028 E0.01922
G1 X83.234 Y95.385 E0.01922
G1 X83.522 Y95.728 E0.01922
G1 X83.826 Y96.055 E0.01922
G1 X84.147 Y96.366 E0.01922
G1 X84.484 Y96.66 E0.01922
G1 X84.836 Y96.936 E0.01922
G1 X85.201 Y97.194 E0.01922
G1 X85.58 Y97.432 E0.01922
G1 X85.97 Y97.651 E0.01922
G1 X86.371 Y97.849 E0.01922
G1 X86.781 Y98.026 E0.01922
G1 X87.2 Y98.181 E0.01922
G1 X87.627 Y98.315 E0.01922
G1 X88.06 Y98.427 E0.01922
G1 X88.498 Y98.516 E0.01922
G1 X88.94 Y98.582 E0.01922
G1 X89.385 Y98.625 E0.01922
G1 X89.832 Y98.646 E0.01922
G1 X90.279 Y98.643 E0.01922
G1 X90.725 Y98.617 E0.01922
G1 X91.17 Y98.568 E0.01922
G1 X91.611 Y98.496 E0.01922
G1 X92.048 Y98.401 E0.01922
G1 X92.479 Y98.284 E0.01922
G1 X92.904 Y98.145 E0.01922
G1 X93.321 Y97.984 E0.01922
G1 X93.73 Y97.801 E0.01922
G1 X94.128 Y97.598 E0.01922
G1 X94.515 Y97.375 E0.01922
G1 X94.89 Y97.131 E0.01922
G1 X95.252 Y96.869 E0.01922
G1 X95.6 Y96.588 E0.01922
G1 X95.933 Y96.29 E0.01922
G1 X96.248 Y95.978 E0.01905
G1 X96.404 Y95.809 E0.00986
G1 X96.551 Y95.644 E0.00953
G1 X96.695 Y95.471 E0.00969
G1 X96.834 Y95.298 E0.00953
G1 X96.969 Y95.117 E0.00969
G1 X97.099 Y94.937 E0.00953
G1 X97.224 Y94.75 E0.00969
G1 X97.344 Y94.564 E0.00953
G1 X97.46 Y94.371 E0.00969
G1 X97.57 Y94.178 E0.00953
G1 X97.676 Y93.979 E0.00969
G1 X97.776 Y93.781 E0.00953
G1 X97.872 Y93.577 E0.00969
G1 X97.961 Y93.374 E0.00953
G1 X98.046 Y93.165 E0.00969
G1 X98.125 Y92.958 E0.00953
G1 X98.199 Y92.745 E0.00969
G1 X98.267 Y92.534 E0.00953
G1 X98.33 Y92.318 E0.00969
G1 X98.387 Y92.103 E0.00953
G1 X98.439 Y91.884 E0.00969
G1 X98.484 Y91.667 E0.00953
G1 X98.525 Y91.445 E0.00969
G1 X98.559 Y91.226 E0.00953
G1 X98.588 Y91.003 E0.00969
G1 X98.611 Y90.782 E0.00953
G1 X98.628 Y90.558 E0.00969
G1 X98.64 Y90.336 E0.00953
G1 X98.646 Y90.111 E0.00969
G1 X98.646 Y89.889 E0.00953
G1 X98.64 Y89.664 E0.00969
G1 X98.628 Y89.442 E0.00953
G1 X98.611 Y89.218 E0.00969
G1 X98.588 Y88.997 E0.00953
G1 X98.559 Y88.774 E0.00969
G1 X98.525 Y88.555 E0.00953
G1 X98.484 Y88.333 E0.00969
G1 X98.439 Y88.116 E0.00953
G1 X98.387 Y87.897 E0.00969
G1 X98.33 Y87.682 E0.00953
G1 X98.267 Y87.466 E0.00969
G1 X98.199 Y87.255 E0.00953
G1 X98.125 Y87.042 E0.00969
G1 X98.046 Y86.835 E0.00953
G1 X97.961 Y86.626 E0.00969
G1 X97.872 Y86.423 E0.00953
G1 X97.776 Y86.219 E0.00969
G1 X97.676 Y86.021 E0.00953
G1 X97.57 Y85.822 E0.00969
G1 X97.46 Y85.629 E0.00953
G1 X97.344 Y85.436 E0.00969
G1 X97.224 Y85.25 E0.00953
G1 X97.099 Y85.063 E0.00969
G1 X96.969 Y84.883 E0.00953
G1 X96.834 Y84.702 E0.00969
G1 X96.695 Y84.529 E0.00953
G1 X96.551 Y84.356 E0.00969
G1 X96.404 Y84.191 E0.00953
G1 X96.248 Y84.022 E0.00986
G1 X95.933 Y83.71 E0.01905
G1 X95.6 Y83.412 E0.01922
G1 X95.252 Y83.131 E0.01922
G1 X94.89 Y82.869 E0.01922
G1 X94.515 Y82.625 E0.01922
G1 X94.128 Y82.402 E0.01922
G1 X93.73 Y82.199 E0.01922
G1 X93.321 Y82.016 E0.01922
G1 X92.904 Y81.855 E0.01922
G1 X92.479 Y81.716 E0.01922
G1 X92.048 Y81.599 E0.01922
G1 X91.611 Y81.504 E0.01922
G1 X91.17 Y81.432 E0.01922
G1 X90.725 Y81.383 E0.01922
G1 X90.279 Y81.357 E0.01922
G1 X89.832 Y81.354 E0.01922
G1 X89.385 Y81.375 E0.01922
G1 X88.94 Y81.418 E0.01922
G1 X88.498 Y81.484 E0.01922
G1 X88.06 Y81.573 E0.01922
G1 X87.627 Y81.685 E0.01922
G1 X87.2 Y81.819 E0.01922
G1 X86.781 Y81.974 E0.01922
G1 X86.371 Y82.151 E0.01922
G1 X85.97 Y82.349 E0.01922
G1 X85.58 Y82.568 E0.01922
G1 X85.201 Y82.806 E0.01922
G1 X84.836 Y83.064 E0.01922
G1 X84.484 Y83.34 E0.01922
G1 X84.147 Y83.634 E0.01922
G1 X83.869 Y83.903 E0.01664
G1 X84.229 Y84.275 F24000
;TYPE:External perimeter
G1 F3782
G1 X83.909 Y84.615 E0.02008
G1 X83.639 Y84.937 E0.01807
G1 X83.386 Y85.273 E0.01807
G1 X83.15 Y85.621 E0.01807
G1 X82.933 Y85.981 E0.01807
G1 X82.735 Y86.351 E0.01807
G1 X82.556 Y86.732 E0.01807
G1 X82.397 Y87.121 E0.01807
G1 X82.258 Y87.518 E0.01807
G1 X82.14 Y87.921 E0.01807
G1 X82.043 Y88.33 E0.01807
G1 X81.968 Y88.744 E0.01807
G1 X81.913 Y89.161 E0.01807
G1 X81.881 Y89.58 E0.01807
G1 X81.87 Y90 E0.01807
G1 X81.881 Y90.42 E0.01807
G1 X81.913 Y90.839 E0.01807
G1 X81.968 Y91.256 E0.01807
G1 X82.043 Y91.67 E0.01807
G1 X82.14 Y92.079 E0.01807
G1 X82.258 Y92.482 E0.01807
G1 X82.397 Y92.879 E0.01807
G1 X82.556 Y93.268 E0.01806
G1 X82.646 Y93.46 E0.00912
G1 X82.735 Y93.649 E0.00897
G1 X82.933 Y94.019 E0.01806
G1 X83.15 Y94.379 E0.01807
G1 X83.386 Y94.727 E0.01807
G1 X83.639 Y95.063 E0.01807
G1 X83.909 Y95.385 E0.01807
G1 X84.196 Y95.693 E0.01807
G1 X84.498 Y95.985 E0.01807
G1 X84.814 Y96.261 E0.01807
G1 X85.145 Y96.521 E0.01807
G1 X85.488 Y96.763 E0.01807
G1 X85.844 Y96.988 E0.01807
G1 X86.211 Y97.193 E0.01807
G1 X86.588 Y97.379 E0.01807
G1 X86.974 Y97.546 E0.01807
G1 X87.368 Y97.692 E0.01807
G1 X87.769 Y97.818 E0.01807
G1 X88.176 Y97.923 E0.01807
G1 X88.588 Y98.006 E0.01807
G1 X89.004 Y98.069 E0.01807
G1 X89.422 Y98.109 E0.01807
G1 X89.842 Y98.128 E0.01807
G1 X90.262 Y98.126 E0.01807
G1 X90.682 Y98.101 E0.01807
G1 X91.1 Y98.055 E0.01807
G1 X91.515 Y97.988 E0.01807
G1 X91.925 Y97.899 E0.01807
G1 X92.331 Y97.788 E0.01807
G1 X92.731 Y97.658 E0.01807
G1 X93.123 Y97.506 E0.01807
G1 X93.507 Y97.335 E0.01807
G1 X93.881 Y97.144 E0.01807
G1 X94.245 Y96.933 E0.01807
G1 X94.598 Y96.705 E0.01807
G1 X94.938 Y96.458 E0.01807
G1 X95.265 Y96.194 E0.01807
G1 X95.578 Y95.914 E0.01807
G1 X95.876 Y95.619 E0.01801
G1 X96.021 Y95.462 E0.00917
G1 X96.159 Y95.306 E0.00896
G1 X96.295 Y95.143 E0.00911
G1 X96.425 Y94.981 E0.00896
G1 X96.552 Y94.811 E0.00911
G1 X96.674 Y94.642 E0.00896
G1 X96.792 Y94.466 E0.00911
G1 X96.905 Y94.291 E0.00896
G1 X97.014 Y94.109 E0.00911
G1 X97.118 Y93.928 E0.00896
G1 X97.217 Y93.741 E0.00911
G1 X97.311 Y93.555 E0.00896
G1 X97.401 Y93.363 E0.00911
G1 X97.485 Y93.172 E0.00896
G1 X97.565 Y92.976 E0.00911
G1 X97.639 Y92.781 E0.00896
G1 X97.709 Y92.581 E0.00911
G1 X97.773 Y92.383 E0.00896
G1 X97.832 Y92.179 E0.00911
G1 X97.885 Y91.978 E0.00896
G1 X97.934 Y91.771 E0.00911
G1 X97.977 Y91.567 E0.00896
G1 X98.015 Y91.359 E0.00911
G1 X98.047 Y91.153 E0.00896
G1 X98.074 Y90.943 E0.00911
G1 X98.096 Y90.736 E0.00896
G1 X98.112 Y90.524 E0.00911
G1 X98.123 Y90.316 E0.00896
G1 X98.129 Y90.104 E0.00911
G1 X98.129 Y89.896 E0.00896
G1 X98.123 Y89.684 E0.00911
G1 X98.112 Y89.476 E0.00896
G1 X98.096 Y89.264 E0.00911
G1 X98.074 Y89.057 E0.00896
G1 X98.047 Y88.847 E0.00911
G1 X98.015 Y88.641 E0.00896
G1 X97.977 Y88.433 E0.00911
G1 X97.934 Y88.229 E0.00896
G1 X97.885 Y88.022 E0.00911
G1 X97.832 Y87.821 E0.00896
G1 X97.773 Y87.617 E0.00911
G1 X97.709 Y87.419 E0.00896
G1 X97.639 Y87.219 E0.00911
G1 X97.565 Y87.024 E0.00896
G1 X97.485 Y86.828 E0.00911
G1 X97.401 Y86.637 E0.00896
G1 X97.311 Y86.445 E0.00911
G1 X97.217 Y86.259 E0.00896
G1 X97.118 Y86.072 E0.00911
G1 X97.014 Y85.891 E0.00896
G1 X96.905 Y85.709 E0.00911
G1 X96.792 Y85.534 E0.00896
G1 X96.674 Y85.358 E0.00911
G1 X96.552 Y85.189 E0.00896
G1 X96.425 Y85.019 E0.00911
G1 X96.295 Y84.857 E0.00896
G1 X96.159 Y84.694 E0.00911
G1 X96.021 Y84.538 E0.00896
G1 X95.876 Y84.381 E0.00917
G1 X95.578 Y84.086 E0.01801
G1 X95.265 Y83.806 E0.01807
G1 X94.938 Y83.542 E0.01807
G1 X94.598 Y83.295 E0.01807
G1 X94.245 Y83.067 E0.01807
G1 X93.881 Y82.856 E0.01807
G1 X93.507 Y82.665 E0.01807
G1 X93.123 Y82.494 E0.01807
G1 X92.731 Y82.342 E0.01807
G1 X92.331 Y82.212 E0.01807
G1 X91.925 Y82.101 E0.01807
G1 X91.515 Y82.012 E0.01807
G1 X91.1 Y81.945 E0.01807
G1 X90.682 Y81.899 E0.01807
G1 X90.262 Y81.874 E0.01807
G1 X89.842 Y81.872 E0.01807
G1 X89.422 Y81.891 E0.01807
G1 X89.004 Y81.931 E0.01807
G1 X88.588 Y81.994 E0.01807
G1 X88.176 Y82.077 E0.01807
G1 X87.769 Y82.182 E0.01807
G1 X87.368 Y82.308 E0.01807
G1 X86.974 Y82.454 E0.01807
G1 X86.588 Y82.621 E0.01807
G1 X86.211 Y82.807 E0.01807
G1 X85.844 Y83.012 E0.01807
G1 X85.488 Y83.237 E0.01807
G1 X85.145 Y83.479 E0.01807
G1 X84.814 Y83.739 E0.01807
G1 X84.498 Y84.015 E0.01807
G1 X84.272 Y84.233 E0.01349
;WIPE_START
G1 X84.184 Y84.262 F24000
;WIPE_END
G1 X75.997 Y81.281
;TYPE:Internal perimeter
G1 F3782
G1 X81.281 Y75.997 E0.3213
G1 X98.719 Y75.997 E0.74973
G1 X98.798 Y76.076 E0.0048
G1 X104.003 Y81.281 E0.3165
G1 X104.003 Y98.719 E0.74973
G1 X98.719 Y104.003 E0.3213
G1 X81.281 Y104.003 E0.74973
G1 X75.997 Y98.719 E0.3213
G1 X75.997 Y81.341 E0.74715
G1 X75.48 Y81.067 F24000
;TYPE:External perimeter
G1 F3782
G1 X81.067 Y75.48 E0.33972
G1 X98.933 Y75.48 E0.76815
G1 X99.163 Y75.71 E0.01401
G1 X104.52 Y81.067 E0.32571
G1 X104.52 Y98.933 E0.76815
G1 X98.933 Y104.52 E0.33972
G1 X81.067 Y104.52 E0.76815
G1 X75.48 Y98.933 E0.33972
G1 X75.48 Y81.127 E0.76557
;WIPE_START
G1 X75.88 Y81.067 F24000
;WIPE_END
G1 X98.315 Y76.178
;TYPE:Solid infill
;WIDTH:0.560262
G1 F3782
G1 X103.6 Y81.463 E0.3215
G1 X103.6 Y82.194 E0.03146
G1 X97.806 Y76.4 E0.35246
G1 X97.075 Y76.4 E0.03146
G1 X103.6 Y82.925 E0.39694
G1 X103.6 Y83.657 E0.03146
G1 X96.343 Y76.4 E0.44143
G1 X95.612 Y76.4 E0.03146
G1 X103.6 Y84.388 E0.48591
G1 X103.6 Y85.119 E0.03146
G1 X94.881 Y76.4 E0.5304
G1 X94.149 Y76.4 E0.03146
G1 X103.6 Y85.851 E0.57488
G1 X103.6 Y86.582 E0.03146
G1 X93.418 Y76.4 E0.61937
G1 X92.687 Y76.4 E0.03146
G1 X103.6 Y87.313 E0.66385
G1 X103.6 Y88.044 E0.03146
G1 X91.956 Y76.4 E0.70834
G1 X91.224 Y76.4 E0.03146
G1 X103.6 Y88.776 E0.75282
G1 X103.6 Y89.507 E0.03146
G1 X90.493 Y76.4 E0.79731
G1 X89.762 Y76.4 E0.03146
G1 X103.6 Y90.238 E0.84179
G1 X103.6 Y90.969 E0.03146
G1 X89.031 Y76.4 E0.88628
G1 X88.299 Y76.4 E0.03146
G1 X93.603 Y81.704 E0.32262
G1 X93.477 Y81.643 E0.00601
G1 X92.595 Y81.329 E0.04025
G1 X92.465 Y81.297 E0.00576
G1 X87.568 Y76.4 E0.2979
G1 X86.837 Y76.4 E0.03146
G1 X91.517 Y81.08 E0.28469
G1 X91.219 Y81.032 E0.01297
G1 X90.693 Y80.987 E0.02273
G1 X86.106 Y76.4 E0.27904
G1 X85.374 Y76.4 E0.03146
G1 X89.935 Y80.961 E0.27741
G1 X89.356 Y80.972 E0.02487
G1 X89.23 Y80.987 E0.00548
G1 X84.643 Y76.4 E0.27905
G1 X83.912 Y76.4 E0.03146
G1 X88.579 Y81.068 E0.28393
G1 X88.428 Y81.087 E0.00656
G1 X87.972 Y81.192 E0.02014
G1 X83.181 Y76.4 E0.29146
G1 X82.449 Y76.4 E0.03146
G1 X87.386 Y81.337 E0.30034
G1 X87.065 Y81.438 E0.01451
G1 X86.844 Y81.527 E0.01021
G1 X81.718 Y76.4 E0.31185
G1 X81.448 Y76.4 E0.0116
G1 X81.218 Y76.631 E0.01404
G1 X86.322 Y81.736 E0.31055
G1 X86.201 Y81.785 E0.00563
G1 X85.833 Y81.978 E0.01787
G1 X80.852 Y76.997 E0.30305
G1 X80.486 Y77.362 E0.02224
G1 X85.356 Y82.232 E0.29625
G1 X84.917 Y82.525 E0.02268
G1 X80.121 Y77.728 E0.2918
G1 X79.755 Y78.094 E0.02224
G1 X84.489 Y82.828 E0.28798
G1 X84.089 Y83.159 E0.02234
G1 X79.389 Y78.459 E0.28589
G1 X79.024 Y78.825 E0.02224
G1 X83.707 Y83.508 E0.28487
G1 X83.344 Y83.877 E0.02224
G1 X78.658 Y79.191 E0.28509
G1 X78.292 Y79.556 E0.02224
G1 X83.007 Y84.271 E0.28681
G1 X82.683 Y84.678 E0.02239
G1 X77.927 Y79.922 E0.28934
G1 X77.561 Y80.287 E0.02224
G1 X82.392 Y85.119 E0.29389
G1 X82.111 Y85.568 E0.02282
G1 X77.196 Y80.653 E0.299
G1 X76.83 Y81.019 E0.02224
G1 X81.866 Y86.055 E0.30637
G1 X81.712 Y86.361 E0.01475
G1 X81.638 Y86.558 E0.00904
G1 X76.464 Y81.384 E0.31473
G1 X76.4 Y81.448 E0.00389
G1 X76.4 Y82.052 E0.02595
G1 X81.437 Y87.088 E0.3064
G1 X81.381 Y87.237 E0.00682
G1 X81.271 Y87.653 E0.01854
G1 X76.4 Y82.783 E0.29628
G1 X76.4 Y83.514 E0.03146
G1 X81.126 Y88.24 E0.28749
G1 X81.027 Y88.872 E0.02753
G1 X76.4 Y84.245 E0.28147
G1 X76.4 Y84.977 E0.03146
G1 X80.972 Y89.548 E0.27811
G1 X80.949 Y90 E0.01945
G1 X80.963 Y90.27 E0.01164
G1 X76.4 Y85.708 E0.27754
G1 X76.4 Y86.439 E0.03146
G1 X81.016 Y91.055 E0.28078
G1 X81.161 Y91.931 E0.03819
G1 X76.4 Y87.17 E0.28959
G1 X76.4 Y87.902 E0.03146
G1 X81.836 Y93.337 E0.33067
G1 E-0.75 F3000
G1 Z0.6 F24000
G1 X97.837 Y85.938
G1 Z0.2
G1 E0.75 F1800
G1 F3782
G1 X103.6 Y91.701 E0.35053
G1 X103.6 Y92.432 E0.03146
G1 X98.699 Y87.531 E0.29811
G1 X98.881 Y88.255 E0.03209
G1 X98.912 Y88.476 E0.00959
G1 X103.6 Y93.163 E0.28515
G1 X103.6 Y93.894 E0.03146
G1 X99.018 Y89.313 E0.27869
G1 X99.048 Y90.074 E0.03275
G1 X103.6 Y94.626 E0.27689
G1 X103.6 Y95.357 E0.03146
G1 X99.015 Y90.773 E0.27887
G1 X98.928 Y91.416 E0.02794
G1 X103.6 Y96.088 E0.28421
G1 X103.6 Y96.819 E0.03146
G1 X98.809 Y92.029 E0.29141
G1 X98.663 Y92.614 E0.02593
G1 X103.6 Y97.551 E0.30032
G1 X103.6 Y98.282 E0.03146
G1 X98.471 Y93.153 E0.312
G1 X98.333 Y93.532 E0.01733
G1 X98.263 Y93.676 E0.00692
G1 X103.369 Y98.782 E0.31062
G1 X103.003 Y99.148 E0.02224
G1 X98.023 Y94.168 E0.30293
G1 X97.924 Y94.373 E0.0098
G1 X97.76 Y94.636 E0.01333
G1 X102.638 Y99.514 E0.2967
G1 X102.272 Y99.879 E0.02224
G1 X97.48 Y95.087 E0.29151
G1 X97.168 Y95.506 E0.02248
G1 X101.906 Y100.245 E0.28826
G1 X101.541 Y100.611 E0.02224
G1 X96.847 Y95.917 E0.28551
G1 X96.496 Y96.298 E0.02226
G1 X101.175 Y100.976 E0.28462
G1 X100.809 Y101.342 E0.02224
G1 X96.12 Y96.653 E0.28527
G1 X95.862 Y96.896 E0.01527
G1 X95.732 Y96.996 E0.00704
G1 X100.444 Y101.708 E0.28664
G1 X100.078 Y102.073 E0.02224
G1 X95.317 Y97.312 E0.28961
G1 X95.119 Y97.464 E0.01076
G1 X94.883 Y97.609 E0.0119
G1 X99.713 Y102.439 E0.29382
G1 X99.347 Y102.804 E0.02224
G1 X94.429 Y97.887 E0.29916
G1 X94.321 Y97.953 E0.00547
G1 X93.944 Y98.133 E0.01795
G1 X98.981 Y103.17 E0.30642
G1 X98.616 Y103.536 E0.02224
G1 X93.447 Y98.367 E0.31442
G1 X92.908 Y98.559 E0.02462
G1 X97.948 Y103.6 E0.30662
G1 X97.217 Y103.6 E0.03146
G1 X92.349 Y98.731 E0.29617
G1 X91.761 Y98.874 E0.02603
G1 X96.486 Y103.6 E0.28745
G1 X95.755 Y103.6 E0.03146
G1 X91.124 Y98.969 E0.28168
G1 X90.764 Y99.018 E0.01562
G1 X90.46 Y99.036 E0.01312
G1 X95.023 Y103.6 E0.27761
G1 X94.292 Y103.6 E0.03146
G1 X89.728 Y99.035 E0.27766
G1 X89.356 Y99.028 E0.01598
G1 X88.938 Y98.976 E0.01815
G1 X93.561 Y103.6 E0.28124
G1 X92.83 Y103.6 E0.03146
G1 X88.058 Y98.828 E0.29025
G1 X87.516 Y98.704 E0.02394
G1 X87.039 Y98.54 E0.02169
G1 X92.098 Y103.6 E0.30777
G1 X91.367 Y103.6 E0.03146
G1 X85.766 Y97.999 E0.34071
